src/lutgen/engine/data/base_inverse_rec709_to_dwg_di.cube
TITLE "LookForge base inverse Rec709->DWG/DI"
LUT_3D_SIZE 5
DOMAIN_MIN 0.000000 0.000000 0.000000
DOMAIN_MAX 1.000000 1.000000 1.000000
0.000000 0.000000 0.000000
0.218750 0.062500 0.031250
0.343750 0.125000 0.062500
0.437500 0.125000 0.000000
0.531250 0.187500 0.031250
0.093750 0.218750 0.000000
0.250000 0.218750 0.000000
0.350727 0.233667 0.021894
0.452747 0.250000 0.042895
0.843394 0.281250 0.093631
0.187500 0.343750 0.000000
0.250000 0.343750 0.000000
0.375000 0.343750 0.000000
0.473075 0.363538 0.000000
0.625444 0.375000 0.062056
0.250000 0.406250 0.093750
0.312500 0.437500 0.000000
0.375000 0.468750 0.000000
0.500000 0.437500 0.000000
0.818492 0.481849 0.026198
0.312500 0.531250 0.000000
0.343750 0.531250 0.000000
0.406250 0.562500 0.000000
0.500000 0.593750 0.000000
1.000000 0.562500 0.000000
0.000000 0.031250 0.218750
0.218750 0.125000 0.250000
0.343750 0.093750 0.218750
0.437500 0.000000 0.187500
0.531250 0.000000 0.156250
0.062500 0.250000 0.250000
0.251909 0.251909 0.251909
0.346971 0.269679 0.266822
0.445024 0.290098 0.283044
0.641999 0.316211 0.301998
0.000000 0.343750 0.156250
0.314472 0.368730 0.292234
0.383401 0.377225 0.303185
0.468425 0.388261 0.310120
0.748327 0.406250 0.320848
0.062500 0.437500 0.000000
0.365757 0.479755 0.312003
0.425609 0.484535 0.321753
0.504815 0.490975 0.318025
0.669354 0.500000 0.323205
0.250000 0.531250 0.000000
0.343750 0.593750 0.093750
0.456001 0.890188 0.148011
0.531250 0.664614 0.205268
0.968750 0.656250 0.011145
0.125000 0.187500 0.375000
0.214338 0.131013 0.370588
0.312500 0.000000 0.375000
0.437500 0.000000 0.343750
0.531250 0.000000 0.343750
0.162505 0.281250 0.383465
0.277856 0.288830 0.368054
0.360658 0.302354 0.375343
0.453083 0.320318 0.387747
0.624603 0.343750 0.404082
0.031250 0.375000 0.406250
0.330831 0.386830 0.388152
0.394416 0.394416 0.394416
0.474338 0.406916 0.404886
0.769724 0.437500 0.430263
0.000000 0.468750 0.312500
0.380855 0.493863 0.410630
0.442866 0.498515 0.424224
0.515777 0.508149 0.433443
0.892504 0.531250 0.453601
0.000000 0.562500 0.281250
0.298995 0.732255 0.183579
0.528827 0.840087 0.477204
0.594248 0.799050 0.478725
1.000000 0.952165 0.494685
0.156250 0.250000 0.500000
0.169366 0.105906 0.488428
0.319697 0.065894 0.487302
0.406250 0.000000 0.500000
0.531250 0.000000 0.468750
0.133253 0.324008 0.511508
0.312810 0.336529 0.487765
0.384025 0.345102 0.489449
0.469408 0.359517 0.497679
0.594873 0.375086 0.513723
0.216936 0.406250 0.517146
0.352861 0.416097 0.498322
0.412895 0.421515 0.497397
0.489108 0.432567 0.505637
0.873592 0.459026 0.526613
0.062500 0.500000 0.531250
0.398917 0.517301 0.520460
0.457906 0.520118 0.521736
0.529708 0.529708 0.529708
0.850098 0.551501 0.547887
0.000000 0.625000 0.437500
0.365166 0.797820 0.483068
0.531250 0.789203 0.566554
0.597087 0.753907 0.568398
0.961801 0.949067 0.587383
0.000000 0.250000 0.625000
0.101282 0.218750 0.962341
0.281250 0.040228 0.808185
0.437500 0.232742 0.861938
0.531250 0.000000 1.000000
0.166211 0.375000 0.828808
0.364014 0.403734 0.907078
0.421507 0.406250 0.793170
0.497905 0.408237 0.734536
1.000000 0.432563 0.960508
0.106941 0.437500 0.973617
0.387757 0.461394 0.826211
0.442319 0.464184 0.733714
0.511713 0.468750 0.688953
0.755234 0.500000 0.961772
0.218750 0.531250 0.881398
0.423202 0.557600 0.895015
0.482539 0.559207 0.825767
0.556518 0.570775 0.861194
0.952541 0.593750 0.976855
0.000000 0.687500 0.906250
0.375000 0.843750 0.972660
0.545511 0.898067 0.898067
0.625000 0.906250 0.993177
1.000000 1.000000 1.000000
