src/lutgen/engine/data/base_inverse_rec709_to_dwg_di.cube
TITLE "LookForge base inverse Rec709->DWG/DI"
LUT_3D_SIZE 9
DOMAIN_MIN 0.000000 0.000000 0.000000
DOMAIN_MAX 1.000000 1.000000 1.000000
0.000000 0.000000 0.000000
0.125000 0.031250 0.031250
0.218750 0.062500 0.031250
0.281250 0.093750 0.062500
0.343750 0.125000 0.062500
0.375000 0.093750 0.000000
0.437500 0.125000 0.000000
0.468750 0.156250 0.031250
0.531250 0.187500 0.031250
0.031250 0.125000 0.000000
0.156250 0.125000 0.000000
0.220734 0.140494 0.000000
0.284869 0.151621 0.026621
0.342214 0.159763 0.007027
0.394752 0.176002 0.043120
0.443558 0.171747 0.024233
0.500000 0.218750 0.125000
0.562500 0.218750 0.062500
0.093750 0.218750 0.000000
0.156250 0.218750 0.000000
0.250000 0.218750 0.000000
0.302226 0.215171 0.000000
0.350727 0.233667 0.021894
0.401428 0.244315 0.076696
0.452747 0.250000 0.042895
0.507357 0.257995 0.031979
0.843394 0.281250 0.093631
0.156250 0.281250 0.031250
0.187500 0.281250 0.000000
0.250000 0.281250 0.000000
0.312500 0.281250 0.000000
0.428562 0.265897 0.000000
0.411430 0.303387 0.027317
0.461140 0.310522 0.082184
0.516021 0.312923 0.001692
0.991777 0.343117 0.183705
0.187500 0.343750 0.000000
0.218750 0.343750 0.000000
0.250000 0.343750 0.000000
0.312500 0.343750 0.000000
0.375000 0.343750 0.000000
0.406250 0.343750 0.000000
0.473075 0.363538 0.000000
0.526503 0.369383 0.076900
0.625444 0.375000 0.062056
0.218750 0.375000 0.031250
0.218750 0.375000 0.000000
0.281250 0.406250 0.000000
0.312500 0.406250 0.000000
0.375000 0.406250 0.000000
0.437500 0.375000 0.000000
0.500000 0.406250 0.000000
0.599546 0.422255 0.000000
0.946315 0.433026 0.133881
0.250000 0.406250 0.093750
0.281250 0.437500 0.031250
0.312500 0.437500 0.000000
0.343750 0.468750 0.000000
0.375000 0.468750 0.000000
0.437500 0.468750 0.000000
0.500000 0.437500 0.000000
0.562500 0.468750 0.000000
0.818492 0.481849 0.026198
0.281250 0.468750 0.031250
0.281250 0.468750 0.000000
0.343750 0.500000 0.000000
0.375000 0.531250 0.000000
0.406250 0.531250 0.000000
0.437500 0.531250 0.000000
0.500000 0.531250 0.000000
1.000000 0.531250 0.000000
1.000000 0.531250 0.000000
0.312500 0.531250 0.000000
0.312500 0.531250 0.000000
0.343750 0.531250 0.000000
0.406250 0.593750 0.000000
0.406250 0.562500 0.000000
0.468750 0.625000 0.000000
0.500000 0.593750 0.000000
1.000000 0.562500 0.000000
1.000000 0.562500 0.000000
0.031250 0.062500 0.156250
0.125000 0.031250 0.156250
0.218750 0.093750 0.156250
0.281250 0.093750 0.156250
0.312500 0.000000 0.093750
0.375000 0.000000 0.062500
0.437500 0.125000 0.125000
0.468750 0.031250 0.000000
0.531250 0.093750 0.000000
0.062500 0.156250 0.156250
0.158100 0.158100 0.158100
0.219854 0.168894 0.167132
0.278982 0.182750 0.178383
0.337562 0.194999 0.187570
0.391524 0.208147 0.197064
0.442800 0.203513 0.185954
0.491906 0.165673 0.135446
0.562500 0.125000 0.000000
0.000000 0.218750 0.093750
0.197240 0.234443 0.182742
0.244480 0.240163 0.190698
0.295532 0.247717 0.196520
0.347015 0.255627 0.201943
0.398362 0.263878 0.208617
0.449679 0.273532 0.217508
0.503755 0.283638 0.226989
0.792546 0.302521 0.240021
0.031250 0.281250 0.000000
0.237860 0.301270 0.209916
0.274309 0.304674 0.215921
0.316460 0.309654 0.221206
0.362172 0.313967 0.215692
0.409987 0.319013 0.217443
0.459334 0.325117 0.224210
0.513139 0.332110 0.232929
0.616048 0.343750 0.247350
0.156250 0.343750 0.000000
0.244631 0.358235 0.173218
0.294871 0.362920 0.205746
0.333466 0.364873 0.200798
0.376407 0.365983 0.179429
0.423436 0.370448 0.205442
0.471466 0.375506 0.222321
0.525184 0.380972 0.233530
0.705287 0.391876 0.253394
0.187500 0.375000 0.000000
0.250000 0.406250 0.093750
0.302853 0.415916 0.143373
0.344974 0.418445 0.152844
0.384602 0.417849 0.045904
0.433046 0.417941 0.000000
0.484701 0.423633 0.164130
0.539974 0.429456 0.215583
0.653811 0.437500 0.245155
0.250000 0.437500 0.000000
0.250000 0.437500 0.000000
0.312500 0.468750 0.031250
0.356909 0.473822 0.060760
0.397945 0.474472 0.000000
0.445159 0.476337 0.000000
0.495880 0.478047 0.000000
0.554520 0.477869 0.040235
0.863455 0.490919 0.233588
0.281250 0.468750 0.062500
0.312500 0.500000 0.125000
0.312500 0.500000 0.000000
0.375000 0.531250 0.000000
0.406250 0.531250 0.000000
0.515657 0.540711 0.000000
0.584963 0.542787 0.000000
0.750368 0.543168 0.000000
0.820968 0.544597 0.055657
0.312500 0.531250 0.031250
0.312500 0.531250 0.000000
0.343750 0.562500 0.000000
0.406250 0.593750 0.093750
0.437500 0.656250 0.000000
0.468750 0.625000 0.000000
0.500000 0.625000 0.000000
0.562500 0.625000 0.000000
1.000000 0.593750 0.000000
0.000000 0.031250 0.218750
0.116695 0.036409 0.232214
0.218750 0.125000 0.250000
0.281250 0.062500 0.218750
0.343750 0.093750 0.218750
0.375000 0.000000 0.187500
0.437500 0.000000 0.187500
0.468750 0.000000 0.187500
0.531250 0.000000 0.156250
0.048174 0.170966 0.245975
0.174048 0.181031 0.233867
0.228985 0.190085 0.238758
0.285519 0.201786 0.246874
0.340551 0.213759 0.255228
0.393648 0.225811 0.262637
0.445582 0.237128 0.269153
0.500000 0.251049 0.277199
0.562500 0.031250 0.125000
0.062500 0.250000 0.250000
0.207986 0.247087 0.247981
0.251909 0.251909 0.251909
0.299585 0.259614 0.258356
0.346971 0.269679 0.266822
0.394471 0.280505 0.275482
0.445024 0.290098 0.283044
0.500003 0.299707 0.289732
0.641999 0.316211 0.301998
0.000000 0.281250 0.187500
0.247425 0.309189 0.266171
0.281507 0.312482 0.270404
0.321067 0.317400 0.276140
0.363065 0.324010 0.283607
0.406877 0.331743 0.290812
0.454581 0.338839 0.295330
0.507954 0.346174 0.300471
0.802599 0.365242 0.316356
0.000000 0.343750 0.156250
0.267461 0.366682 0.268451
0.314472 0.368730 0.292234
0.346727 0.372403 0.296973
0.383401 0.377225 0.303185
0.423632 0.382576 0.307369
0.468425 0.388261 0.310120
0.521562 0.393302 0.310975
0.748327 0.406250 0.320848
0.000000 0.375000 0.031250
0.226037 0.411591 0.173586
0.342241 0.423475 0.306643
0.373393 0.426031 0.316287
0.405988 0.429691 0.320519
0.443313 0.433929 0.323167
0.486457 0.438117 0.321879
0.538678 0.442389 0.320086
0.796869 0.451822 0.326305
0.062500 0.437500 0.000000
0.250000 0.468750 0.062500
0.365757 0.479755 0.312003
0.394466 0.481843 0.319760
0.425609 0.484535 0.321753
0.462198 0.487732 0.322261
0.504815 0.490975 0.318025
0.558462 0.494161 0.317278
0.669354 0.500000 0.323205
0.156250 0.468750 0.000000
0.250000 0.500000 0.000000
0.360030 0.534999 0.254606
0.409618 0.545136 0.308486
0.439267 0.547032 0.304742
0.474747 0.548841 0.295279
0.517183 0.549362 0.266480
0.573166 0.547741 0.203257
0.896739 0.562500 0.313368
0.250000 0.531250 0.000000
0.312500 0.562500 0.000000
0.343750 0.593750 0.093750
0.403013 0.625000 0.209284
0.456001 0.890188 0.148011
0.499291 0.992196 0.208750
0.531250 0.664614 0.205268
0.590245 0.656250 0.000000
0.968750 0.656250 0.011145
0.062500 0.125000 0.312500
0.118921 0.074568 0.305949
0.190946 0.003446 0.303445
0.281250 0.125000 0.312500
0.343750 0.156250 0.312500
0.375000 0.000000 0.281250
0.437500 0.000000 0.281250
0.468750 0.000000 0.281250
0.531250 0.000000 0.250000
0.018289 0.196227 0.320809
0.194965 0.209830 0.303900
0.242753 0.216292 0.304694
0.294462 0.226096 0.310220
0.347023 0.236779 0.317613
0.398680 0.247402 0.324425
0.447412 0.241104 0.323523
0.499502 0.241261 0.321306
0.571643 0.100574 0.265045
0.018387 0.253677 0.322541
0.223288 0.264822 0.310861
0.263460 0.268688 0.312140
0.307476 0.275438 0.316171
0.352776 0.284381 0.321677
0.398781 0.294216 0.328591
0.447699 0.303966 0.335716
0.501938 0.313318 0.342616
0.828004 0.339916 0.359945
0.000000 0.312500 0.312500
0.258477 0.320190 0.321523
0.290316 0.323012 0.323795
0.327575 0.327575 0.327575
0.368293 0.333925 0.332886
0.410453 0.341827 0.339533
0.454638 0.350863 0.347255
0.503946 0.360344 0.355011
0.635449 0.375000 0.365671
0.000000 0.375000 0.281250
0.276916 0.375678 0.329867
0.321565 0.376517 0.339426
0.352431 0.379992 0.342982
0.388125 0.384610 0.347663
0.427092 0.390496 0.353570
0.469332 0.397601 0.360648
0.518051 0.405009 0.366946
0.752234 0.418441 0.376973
0.000000 0.406250 0.250000
0.254069 0.421727 0.303202
0.349095 0.429906 0.353120
0.380005 0.432314 0.360453
0.411431 0.436069 0.364761
0.447386 0.440842 0.370246
0.488062 0.446766 0.376658
0.535769 0.453492 0.383004
0.931048 0.468750 0.389351
0.000000 0.437500 0.218750
0.178136 0.465771 0.212374
0.374985 0.485830 0.363786
0.409068 0.487529 0.379745
0.437399 0.490739 0.383935
0.470953 0.495218 0.388717
0.510802 0.501105 0.394534
0.559315 0.506520 0.398533
0.831801 0.516607 0.398739
0.000000 0.500000 0.093750
0.093750 0.500000 0.000000
0.381325 0.546817 0.348406
0.435763 0.551501 0.394196
0.465447 0.554759 0.403544
0.497618 0.558853 0.407640
0.537543 0.565100 0.412704
0.589084 0.571848 0.417117
0.839774 0.581074 0.409968
0.000000 0.531250 0.000000
0.218750 0.562500 0.000000
0.312500 0.625787 0.097191
0.468750 0.690694 0.406250
0.500000 0.739657 0.409034
0.531250 0.727076 0.410723
0.577433 0.807193 0.412177
0.644501 0.890797 0.409711
0.967525 0.781250 0.406250
0.125000 0.187500 0.375000
0.129894 0.129894 0.370076
0.214338 0.131013 0.370588
0.261694 0.000000 0.365962
0.312500 0.000000 0.375000
0.375000 0.000000 0.343750
0.437500 0.000000 0.343750
0.468750 0.000000 0.343750
0.531250 0.000000 0.343750
0.046445 0.228237 0.384487
0.219855 0.242771 0.369930
0.261416 0.246646 0.369218
0.308468 0.253927 0.372326
0.355751 0.262867 0.376622
0.405025 0.270534 0.382031
0.454037 0.272598 0.384891
0.503721 0.261362 0.380111
0.569083 0.146082 0.343750
0.162505 0.281250 0.383465
0.241573 0.286977 0.372323
0.277856 0.288830 0.368054
0.318167 0.294670 0.371131
0.360658 0.302354 0.375343
0.404377 0.311491 0.380552
0.453083 0.320318 0.387747
0.507374 0.328830 0.394381
0.624603 0.343750 0.404082
0.080342 0.326023 0.387727
0.267445 0.336158 0.380246
0.301993 0.337346 0.377130
0.337135 0.341517 0.379643
0.375629 0.347155 0.383458
0.416280 0.354092 0.388289
0.459797 0.362464 0.394188
0.508363 0.371846 0.401042
0.730633 0.388553 0.414188
0.031250 0.375000 0.406250
0.284037 0.386463 0.388458
0.330831 0.386830 0.388152
0.359957 0.390017 0.390757
0.394416 0.394416 0.394416
0.432514 0.400080 0.399151
0.474338 0.406916 0.404886
0.521939 0.414873 0.411560
0.769724 0.437500 0.430263
0.000000 0.406250 0.343750
0.257886 0.430997 0.375481
0.356506 0.438722 0.400870
0.386849 0.440587 0.404817
0.417267 0.444238 0.408255
0.452609 0.448988 0.412678
0.492982 0.454815 0.418089
0.540651 0.461625 0.424389
0.739942 0.476707 0.437500
0.000000 0.468750 0.312500
0.221575 0.477854 0.343857
0.380855 0.493863 0.410630
0.414971 0.495450 0.420755
0.442866 0.498515 0.424224
0.476104 0.502892 0.428379
0.515777 0.508149 0.433443
0.564196 0.514750 0.439326
0.892504 0.531250 0.453601
0.000000 0.500000 0.281250
0.103655 0.528112 0.273993
0.387388 0.555661 0.404619
0.443698 0.559785 0.437251
0.471046 0.562421 0.442011
0.503099 0.567480 0.446097
0.543155 0.573504 0.450851
0.594861 0.580795 0.456665
0.835144 0.597470 0.468750
0.000000 0.562500 0.281250
0.000000 0.593750 0.156250
0.298995 0.732255 0.183579
0.480250 0.781588 0.449000
0.528827 0.840087 0.477204
0.553984 0.779082 0.476544
0.594248 0.799050 0.478725
0.657840 0.833775 0.483378
1.000000 0.952165 0.494685
0.062500 0.187500 0.437500
0.107445 0.148543 0.427652
0.201808 0.126931 0.429029
0.272585 0.122322 0.428835
0.315785 0.000000 0.502827
0.375000 0.000000 0.437500
0.437500 0.000000 0.406250
0.468750 0.000000 0.406250
0.531250 0.000000 0.406250
0.044687 0.258815 0.446315
0.244549 0.274844 0.429964
0.281056 0.278353 0.430795
0.323456 0.283875 0.432889
0.367997 0.291012 0.435569
0.409175 0.278932 0.436352
0.456320 0.273188 0.438225
0.509324 0.281740 0.438679
0.570794 0.153437 0.406250
0.135279 0.301741 0.445655
0.263242 0.311372 0.432818
0.294297 0.311816 0.425428
0.331184 0.316343 0.426522
0.371639 0.322848 0.430010
0.413823 0.330675 0.434218
0.460156 0.339020 0.440601
0.514276 0.347045 0.447854
0.916646 0.367028 0.461558
0.123120 0.343750 0.449788
0.283747 0.354485 0.439439
0.315545 0.354177 0.430727
0.348419 0.357574 0.431539
0.384757 0.362803 0.434690
0.424057 0.369303 0.438692
0.466379 0.376934 0.443586
0.514885 0.385451 0.449666
0.800134 0.406250 0.467092
0.112589 0.389833 0.450309
0.306233 0.401034 0.447261
0.341609 0.399929 0.439266
0.369861 0.402712 0.440778
0.402933 0.406918 0.443857
0.439786 0.412221 0.447805
0.480890 0.418577 0.452582
0.528247 0.426189 0.458306
0.647858 0.439739 0.468750
0.156250 0.437500 0.468750
0.258091 0.443083 0.445834
0.366859 0.449546 0.451377
0.395068 0.451108 0.452454
0.424512 0.454599 0.455367
0.459163 0.459163 0.459163
0.499134 0.464817 0.463881
0.547308 0.471555 0.469428
0.820578 0.488681 0.483837
0.000000 0.468750 0.406250
0.201981 0.488715 0.423833
0.388578 0.504294 0.461835
0.422512 0.505688 0.466730
0.449812 0.508038 0.469332
0.482570 0.512478 0.473153
0.522115 0.517981 0.477870
0.571583 0.524476 0.483411
0.892025 0.543052 0.498211
0.000000 0.531250 0.375000
0.132007 0.541871 0.388814
0.392284 0.566500 0.458318
0.450684 0.570484 0.481842
0.477743 0.573704 0.485896
0.509760 0.579514 0.489614
0.549950 0.584403 0.493920
0.603052 0.591613 0.499143
0.760593 0.604165 0.507309
0.000000 0.593750 0.343750
0.000000 0.625000 0.343750
0.351668 0.919175 0.389940
0.486493 0.911436 0.495350
0.531250 0.822235 0.517816
0.562500 0.822397 0.520343
0.604337 0.850155 0.522627
0.682626 0.988116 0.530823
0.869537 0.807343 0.531250
0.156250 0.250000 0.500000
0.043336 0.163068 0.485151
0.169366 0.105906 0.488428
0.271197 0.156177 0.489947
0.319697 0.065894 0.487302
0.367674 0.000000 0.683459
0.406250 0.000000 0.500000
0.468750 0.000000 0.468750
0.531250 0.000000 0.468750
0.065026 0.281250 0.508177
0.266466 0.306435 0.494832
0.302110 0.309392 0.494455
0.339681 0.313712 0.496108
0.380846 0.318983 0.499086
0.423939 0.322629 0.502264
0.468516 0.320113 0.503696
0.512063 0.284358 0.496338
0.568029 0.154302 0.468750
0.133253 0.324008 0.511508
0.285986 0.336911 0.496231
0.312810 0.336529 0.487765
0.346160 0.339742 0.486645
0.384025 0.345102 0.489449
0.425106 0.351810 0.493238
0.469408 0.359517 0.497679
0.522730 0.367155 0.506145
0.594873 0.375086 0.513723
0.121850 0.360981 0.516000
0.302661 0.373787 0.501268
0.330824 0.373742 0.490976
0.361009 0.375558 0.486239
0.395270 0.380369 0.489104
0.433268 0.386429 0.492893
0.475134 0.393583 0.497509
0.522929 0.401409 0.503336
0.684593 0.413238 0.515421
0.216936 0.406250 0.517146
0.323248 0.416868 0.509180
0.352861 0.416097 0.498322
0.381340 0.417535 0.494780
0.412895 0.421515 0.497397
0.448684 0.426569 0.501015
0.489108 0.432567 0.505637
0.536316 0.439645 0.511103
0.873592 0.459026 0.526613
0.092134 0.449017 0.518040
0.329032 0.460922 0.515307
0.376546 0.463377 0.508736
0.404942 0.463772 0.505504
0.433637 0.467312 0.508363
0.467556 0.471747 0.512071
0.507290 0.477359 0.516612
0.555598 0.484081 0.522005
0.748449 0.500000 0.535524
0.062500 0.500000 0.531250
0.186471 0.502713 0.506971
0.398917 0.517301 0.520460
0.431459 0.517392 0.519114
0.457906 0.520118 0.521736
0.490586 0.524456 0.525352
0.529708 0.529708 0.529708
0.580509 0.536605 0.535424
0.850098 0.551501 0.547887
0.000000 0.531250 0.562500
0.039829 0.555566 0.475901
0.398238 0.580999 0.521111
0.459284 0.583663 0.535128
0.485862 0.588268 0.538154
0.517770 0.593906 0.542015
0.558141 0.599297 0.546743
0.613155 0.606858 0.552330
0.809793 0.621992 0.562500
0.000000 0.625000 0.437500
0.000000 0.643307 0.489341
0.365166 0.797820 0.483068
0.494270 0.948434 0.554523
0.531250 0.789203 0.566554
0.562500 0.789439 0.569492
0.597087 0.753907 0.568398
0.673962 0.834926 0.578395
0.961801 0.949067 0.587383
0.093750 0.250000 0.562500
0.093750 0.218750 0.562500
0.175545 0.184018 0.558749
0.275733 0.208761 0.561382
0.340295 0.223305 0.562500
0.375000 0.102103 0.556765
0.415910 0.000000 0.858077
0.468750 0.000000 0.562500
0.531250 0.000000 0.531250
0.090687 0.296562 0.577812
0.297317 0.338846 0.572692
0.323465 0.340077 0.569240
0.356236 0.342534 0.570767
0.394660 0.346563 0.575355
0.436771 0.352187 0.579252
0.475533 0.340750 0.577761
0.512107 0.270382 0.568203
0.568359 0.020686 0.534698
0.086033 0.343750 0.597598
0.309124 0.362910 0.572691
0.331249 0.361619 0.559699
0.362488 0.364805 0.560873
0.398323 0.369125 0.563137
0.437883 0.374492 0.566476
0.482176 0.380831 0.571990
0.533303 0.388130 0.577794
0.876075 0.406250 0.599067
0.010246 0.376138 0.604012
0.323350 0.395627 0.576950
0.347674 0.394983 0.564521
0.375368 0.395444 0.552679
0.407442 0.399293 0.553449
0.443811 0.404658 0.556900
0.485049 0.411297 0.562406
0.533428 0.419097 0.569176
0.843742 0.437500 0.595599
0.169833 0.423233 0.599421
0.341234 0.434790 0.586050
0.366626 0.434453 0.572091
0.393764 0.434538 0.561593
0.424143 0.437541 0.560825
0.458746 0.442476 0.564856
0.498566 0.448444 0.570065
0.546419 0.455279 0.576195
0.669210 0.468750 0.588602
0.268751 0.468750 0.602246
0.354451 0.477851 0.595221
0.388281 0.480125 0.583976
0.415955 0.478773 0.570762
0.444316 0.482108 0.573089
0.477558 0.486559 0.577252
0.517026 0.491927 0.582317
0.565512 0.498247 0.588335
0.792235 0.512362 0.602383
0.122913 0.514146 0.603497
0.350698 0.526480 0.601264
0.409628 0.534045 0.597749
0.441302 0.531739 0.586064
0.467816 0.534746 0.588183
0.499964 0.539361 0.592244
0.539926 0.545073 0.597852
0.591163 0.551849 0.604813
0.710528 0.562500 0.615852
0.000000 0.562500 0.625000
0.108619 0.577128 0.585270
0.405944 0.599384 0.605566
0.469109 0.600564 0.604867
0.495307 0.605269 0.608241
0.527184 0.610791 0.612605
0.568582 0.616897 0.618266
0.624974 0.624974 0.624974
0.842804 0.640192 0.637657
0.000000 0.625000 0.687500
0.000000 0.669883 0.619082
0.360508 0.921328 0.562500
0.500000 0.882402 0.634768
0.531250 0.760709 0.636781
0.563864 0.776137 0.641588
0.620193 0.965169 0.655071
0.687500 0.879305 0.659584
0.922022 0.902527 0.668005
0.000000 0.250000 0.625000
0.125000 0.250000 0.656250
0.101282 0.218750 0.962341
0.214447 0.149795 0.756455
0.281250 0.040228 0.808185
0.375000 0.187500 0.708649
0.437500 0.232742 0.861938
0.468750 0.000000 1.000000
0.531250 0.000000 1.000000
0.143955 0.325051 0.906506
0.317097 0.367545 0.748570
0.348751 0.375000 0.727763
0.377360 0.376725 0.734275
0.413399 0.382065 0.782339
0.450157 0.381567 0.777856
0.486576 0.370720 0.801047
0.531250 0.359124 0.911647
0.562500 0.199261 0.750000
0.166211 0.375000 0.828808
0.343750 0.403036 0.923397
0.364014 0.403734 0.907078
0.391316 0.406250 0.855614
0.421507 0.406250 0.793170
0.456619 0.406250 0.746517
0.497905 0.408237 0.734536
0.551756 0.416477 0.810795
1.000000 0.432563 0.960508
0.187500 0.406250 0.911962
0.347278 0.422086 0.750506
0.375000 0.429757 0.917003
0.401778 0.433028 0.845149
0.432900 0.437500 0.861468
0.465047 0.437500 0.776112
0.502146 0.437500 0.718145
0.549810 0.441460 0.727103
0.934980 0.463332 0.951235
0.106941 0.437500 0.973617
0.345694 0.461574 0.941448
0.387757 0.461394 0.826211
0.412076 0.460140 0.730661
0.442319 0.464184 0.733714
0.475668 0.468750 0.735916
0.511713 0.468750 0.688953
0.561756 0.478377 0.783767
0.755234 0.500000 0.961772
0.230310 0.489687 0.948436
0.375000 0.497626 0.756372
0.406250 0.505316 0.829688
0.436899 0.511594 0.975535
0.466298 0.514345 0.977930
0.495822 0.514364 0.869267
0.532135 0.515083 0.795739
0.586302 0.526289 0.955354
0.744987 0.531250 0.752506
0.218750 0.531250 0.881398
0.386642 0.550481 0.862746
0.423202 0.557600 0.895015
0.455120 0.559593 0.877333
0.482539 0.559207 0.825767
0.515753 0.565722 0.860528
0.556518 0.570775 0.861194
0.609079 0.575508 0.854065
0.952541 0.593750 0.976855
0.101947 0.593750 0.921107
0.375000 0.614663 0.822689
0.437500 0.633066 0.983626
0.478607 0.631585 0.846979
0.508793 0.631442 0.820345
0.540409 0.636849 0.823272
0.584573 0.647713 0.926580
0.645777 0.656250 0.931171
0.870977 0.669068 0.889408
0.000000 0.687500 0.906250
0.126359 0.750000 0.922554
0.375000 0.843750 0.972660
0.506830 0.853480 1.000000
0.545511 0.898067 0.898067
0.578202 0.906714 0.922261
0.625000 0.906250 0.993177
0.701378 0.947885 0.947885
1.000000 1.000000 1.000000
