src/lutgen/engine/data/base_dwg_di_to_rec709_g24.cube
TITLE "Generated by Resolve"
LUT_3D_SIZE 9
0 0 0
0.137087 0.00451667 0.00779736
0.339651 0.0178988 0.0308843
0.612757 0.0524605 0.0905318
0.91397 0.111986 0.170733
1 0.158175 0.22977
1 0.180377 0.258167
1 0.18851 0.268574
1 0.191165 0.271962
0.00560006 0.120073 0.0305333
0.099443 0.110246 0.00970474
0.309331 0.0978866 0
0.589319 0.0785229 0
0.902525 0.126375 0.0910658
1 0.165042 0.168017
1 0.186587 0.2038
1 0.194507 0.216464
1 0.197086 0.220554
0.0221866 0.308034 0.116884
0.0474403 0.302831 0.0392004
0.269703 0.289769 0.0384527
0.553475 0.277073 0
0.860288 0.239399 0
1 0.218585 0
1 0.234012 0
1 0.239811 0
1 0.241718 0.00587472
0.0650339 0.561471 0.251301
0.0839399 0.558892 0.21529
0.19353 0.544335 0.0852216
0.49929 0.531853 0.110155
0.811917 0.52195 0
1 0.503838 0
1 0.492454 0
1 0.487831 0
1 0.486275 0
0.133379 0.84097 0.399542
0.146319 0.839277 0.377737
0.183139 0.834409 0.294789
0.415213 0.805249 0.12958
0.752468 0.79881 0.198672
0.980102 0.795132 0.0944381
1 0.790509 0.0174563
1 0.788403 0
1 0.787686 0
0.184253 1 0.508675
0.194461 1 0.491875
0.223804 1 0.434226
0.354955 1 0.246082
0.702922 0.999893 0.208988
0.938857 0.995346 0.263828
1 0.994415 0.246326
1 0.994003 0.221042
1 0.993805 0.212787
0.208713 1 0.561151
0.217945 1 0.546059
0.244617 1 0.495674
0.321736 1 0.302708
0.669947 1 0.217227
0.918669 1 0.26714
1 1 0.295171
1 1 0.306096
1 1 0.309743
0.217685 1 0.580392
0.226596 1 0.565835
0.252399 1 0.517678
0.316396 1 0.330724
0.656245 1 0.22063
0.910094 1 0.26894
1 1 0.296056
1 1 0.306645
1 1 0.31017
0.2206 1 0.586648
0.229419 1 0.572274
0.254932 1 0.524788
0.318273 1 0.342885
0.651576 1 0.221775
0.907164 1 0.269581
1 1 0.296422
1 1 0.306905
1 1 0.310384
0.0116426 0 0.106813
0.1337 0.00401312 0.111116
0.337072 0.0143282 0.134905
0.610224 0.0428473 0.172152
0.912291 0.10367 0.230289
1 0.15169 0.278569
1 0.174533 0.302876
1 0.182864 0.311925
1 0.18558 0.314885
0.00436408 0.0995956 0.0976272
0.0872511 0.0872511 0.0872511
0.323873 0.0539101 0.0650339
0.597513 0.0532387 0.0894942
0.904143 0.112612 0.170047
1 0.158648 0.229236
1 0.180819 0.257679
1 0.188937 0.268101
1 0.191577 0.271489
0.0144198 0.296422 0.165118
0.0323644 0.290974 0.115816
0.260822 0.279484 0.0530709
0.559335 0.258366 0.029633
0.86537 0.215717 0
1 0.202991 0.00691234
1 0.219165 0.0649424
1 0.225238 0.0878004
1 0.227237 0.0948959
0.0559701 0.554864 0.280293
0.0741131 0.552163 0.250309
0.155291 0.541817 0.110857
0.494423 0.526223 0.121401
0.81445 0.512947 0.0227512
1 0.493462 0
1 0.481514 0
1 0.476707 0
1 0.475074 0
0.126589 0.836683 0.418982
0.139803 0.834958 0.398871
0.177218 0.829999 0.323857
0.39942 0.802945 0.146517
0.74931 0.795163 0.205997
0.980591 0.790188 0.119005
1 0.785092 0.0542458
1 0.782834 0.0314031
1 0.782071 0.0241855
0.178958 1 0.524086
0.189303 1 0.508141
0.218982 1 0.453773
0.333562 1 0.258717
0.695918 0.997711 0.219181
0.936385 0.992493 0.269596
1 0.991165 0.252811
1 0.990585 0.230015
1 0.990326 0.222629
0.203937 1 0.575113
0.213275 1 0.560662
0.240208 1 0.512627
0.306783 1 0.322835
0.661402 1 0.228046
0.9149 1 0.274037
1 1 0.300374
1 1 0.310735
1 1 0.314183
0.213062 1 0.593881
0.22208 1 0.579904
0.248112 1 0.533837
0.312535 1 0.358938
0.64712 1 0.231601
0.905882 1 0.276173
1 1 0.301656
1 1 0.311681
1 1 0.315022
0.216037 1 0.6
0.224948 1 0.586175
0.250706 1 0.540703
0.314443 1 0.370092
0.642267 1 0.232792
0.902815 1 0.276921
1 1 0.302144
1 1 0.312047
1 1 0.315358
0.0460975 0 0.283375
0.154162 0 0.280659
0.333349 0.0158694 0.291371
0.607782 0.041825 0.323934
0.909361 0.0927138 0.360021
1 0.135531 0.391302
1 0.156435 0.407935
1 0.165454 0.414862
1 0.168383 0.417136
0 0.0433814 0.256825
0.0581521 0.0108186 0.270909
0.307515 0.0198215 0.268574
0.594446 0.0487984 0.289082
0.900862 0.0998398 0.324895
1 0.141344 0.358038
1 0.162997 0.376394
1 0.171771 0.38378
1 0.174624 0.386206
0.0172732 0.269993 0.266316
0.0297093 0.262486 0.259022
0.247028 0.247028 0.247028
0.58645 0.195926 0.212161
0.877943 0.136919 0.185519
1 0.160174 0.22771
1 0.182162 0.256291
1 0.190234 0.266758
1 0.192874 0.270161
0.0426795 0.537636 0.35494
0.0584115 0.534463 0.336309
0.112093 0.525383 0.253071
0.480659 0.509987 0.156649
0.82417 0.483604 0.152529
1 0.460075 0.125917
1 0.446418 0.106783
1 0.44097 0.0984665
1 0.439155 0.0955825
0.105135 0.823896 0.471
0.119371 0.822065 0.454917
0.158877 0.816785 0.397223
0.342779 0.79675 0.1935
0.739879 0.784268 0.227466
0.982864 0.774899 0.182101
1 0.768353 0.153674
1 0.765652 0.142855
1 0.764736 0.139254
0.1626 1 0.56672
0.173434 1 0.552941
0.204242 1 0.506706
0.27924 1 0.315877
0.673594 0.991409 0.248615
0.929 0.983978 0.286519
1 0.981323 0.272938
1 0.980209 0.257008
1 0.979797 0.251942
0.189288 1 0.614176
0.198978 1 0.601389
0.22678 1 0.559335
0.294774 1 0.402991
0.634028 1 0.259068
0.903288 1 0.294286
1 1 0.315694
1 1 0.324331
1 1 0.32723
0.198962 1 0.631739
0.208301 1 0.619303
0.235111 1 0.578622
0.300862 1 0.431662
0.617929 1 0.262974
0.892897 1 0.297337
1 1 0.31812
1 1 0.326482
1 1 0.32929
0.202106 1 0.637491
0.211322 1 0.625147
0.237842 1 0.584894
0.302876 1 0.440742
0.612467 1 0.264256
0.889403 1 0.29836
1 1 0.318944
1 1 0.327214
1 1 0.329992
0.127962 0 0.521462
0.199145 0 0.516518
0.357916 0 0.517479
0.602548 0.04654 0.534447
0.905409 0.0917067 0.571633
1 0.133394 0.596155
1 0.153811 0.608377
1 0.161318 0.61297
1 0.16376 0.614481
0.023743 0.0104067 0.519341
0.125002 0 0.511193
0.324697 0 0.51046
0.588678 0.0503395 0.522194
0.896727 0.0973526 0.554391
1 0.13846 0.577707
1 0.158556 0.5897
1 0.165942 0.594247
1 0.168353 0.595758
0 0.205341 0.474723
0 0.184329 0.482704
0.211994 0.131334 0.514076
0.547768 0.0762036 0.486839
0.870466 0.114382 0.495949
1 0.153567 0.51606
1 0.172686 0.527794
1 0.179736 0.532372
1 0.18204 0.533898
0.0506447 0.499733 0.493797
0.0618906 0.495689 0.48986
0.101396 0.48304 0.477577
0.462486 0.462486 0.462486
0.856718 0.408515 0.424353
1 0.36759 0.399954
1 0.350164 0.391745
1 0.343114 0.388495
1 0.340734 0.387396
0.094728 0.797742 0.589654
0.107576 0.795575 0.580285
0.143633 0.789197 0.548486
0.237858 0.77528 0.412543
0.720653 0.75967 0.309804
0.998718 0.733333 0.331411
1 0.721889 0.332876
1 0.717647 0.331914
1 0.716243 0.331472
0.134798 1 0.665614
0.145785 1 0.655833
0.176791 1 0.62385
0.25127 0.991913 0.508461
0.600809 0.9776 0.325322
0.909667 0.961471 0.329656
1 0.954055 0.331868
1 0.951324 0.330846
1 0.950423 0.330388
0.154482 1 0.704219
0.164645 1 0.694575
0.193469 1 0.663478
0.262715 1 0.557321
0.543053 1 0.335576
0.86952 1 0.345968
1 1 0.354772
1 1 0.35877
1 1 0.358892
0.16173 1 0.718685
0.171618 1 0.709133
0.199695 1 0.678416
0.269032 1 0.576211
0.520729 1 0.339879
0.854734 1 0.351186
0.989136 1 0.360204
1 1 0.364233
1 1 0.365637
0.164096 1 0.72343
0.173892 1 0.713909
0.20206 1 0.683421
0.271366 1 0.582498
0.513191 1 0.341268
0.849867 1 0.352834
0.984878 1 0.361913
1 1 0.365942
1 1 0.367346
0.224002 0 0.784039
0.269535 0 0.779049
0.40058 0 0.777249
0.625177 0.00460822 0.779339
0.899428 0.100923 0.802502
1 0.1355 0.831876
1 0.154177 0.844236
1 0.161227 0.84863
1 0.163531 0.85005
0.164462 0 0.782544
0.222095 0 0.777417
0.367468 0 0.773159
0.608789 0.010956 0.774456
0.890501 0.104204 0.794614
1 0.139239 0.821942
1 0.157931 0.833661
1 0.164935 0.837873
1 0.167239 0.839231
0 0.0944686 0.752514
0 0.0589151 0.762005
0.231571 0 0.761868
0.553185 0.0354009 0.76025
0.863294 0.113878 0.770581
1 0.150408 0.79089
1 0.16907 0.800565
1 0.176013 0.804166
1 0.178286 0.805356
0 0.443229 0.714229
0 0.434775 0.717235
0 0.406104 0.729244
0.429282 0.353475 0.780575
0.828809 0.292119 0.750362
1 0.257649 0.71902
1 0.234363 0.708843
1 0.224537 0.705425
1 0.221164 0.704341
0.108644 0.753109 0.74464
0.117617 0.7505 0.742107
0.144076 0.742596 0.734401
0.212512 0.720684 0.713176
0.700099 0.700099 0.700099
1 0.665629 0.675486
1 0.645182 0.661082
1 0.636973 0.655344
1 0.634211 0.653422
0.14139 0.975433 0.814572
0.1505 0.973617 0.809506
0.176745 0.968231 0.793439
0.241779 0.954162 0.741588
0.517723 0.947951 0.634073
0.891463 0.923476 0.606607
1 0.909255 0.590417
1 0.903609 0.583947
1 0.901717 0.581765
0.159258 1 0.848478
0.168048 1 0.842832
0.193332 1 0.824994
0.255451 1 0.76878
0.410788 1 0.609552
0.819547 1 0.563546
0.982345 1 0.546014
1 1 0.538994
1 1 0.536629
0.166003 1 0.861082
0.174655 1 0.855283
0.199527 1 0.837018
0.260548 1 0.779904
0.398993 1 0.616754
0.789395 1 0.545693
0.957809 1 0.527565
1 1 0.520272
1 1 0.51783
0.168215 1 0.865217
0.176822 1 0.859373
0.201556 1 0.840986
0.262226 1 0.783642
0.395239 1 0.619257
0.779065 1 0.53962
0.949477 1 0.521263
1 1 0.513878
1 1 0.511406
0.294713 0 0.97734
0.331502 0 0.973419
0.438544 0 0.968811
0.652583 0 0.970001
0.907439 0.0833906 0.974182
1 0.144686 0.999847
1 0.160143 1
1 0.166247 1
1 0.168276 1
0.250538 0 0.976135
0.293217 0 0.972152
0.407507 0 0.965698
0.634974 0 0.966476
0.898192 0.0861067 0.969985
1 0.147265 0.993667
1 0.162951 1
1 0.1691 1
1 0.171145 1
0.0163729 0.0565194 0.969665
0.118715 0.0243076 0.968963
0.290028 0 0.956909
0.57641 0 0.956298
0.869169 0.095964 0.957519
1 0.154864 0.975021
1 0.171267 0.987076
1 0.177569 0.991257
1 0.17966 0.992599
0 0.359487 0.899245
0 0.346868 0.903548
0 0.303548 0.918441
0.389425 0.216052 0.952789
0.781003 0.150622 0.928405
1 0.174533 0.924483
1 0.193103 0.927764
1 0.199878 0.929397
1 0.20209 0.929976
0 0.721492 0.895216
0 0.717494 0.895659
0 0.704952 0.897719
0.163317 0.666117 0.910826
0.678599 0.633112 0.94052
0.990204 0.594507 0.922835
1 0.571374 0.912612
1 0.562036 0.908583
1 0.558892 0.907225
0.154101 0.939635 0.92932
0.161151 0.937591 0.927337
0.181949 0.931456 0.921355
0.235584 0.91487 0.905241
0.487816 0.900954 0.893767
0.875029 0.875029 0.875029
1 0.859922 0.864195
1 0.853925 0.859907
1 0.851911 0.858473
0.168612 1 0.963195
0.17586 1 0.96022
0.197101 1 0.951019
0.250797 1 0.924086
0.385489 1 0.868269
0.801495 0.997436 0.846555
0.96762 0.98439 0.835309
1 0.979217 0.830869
1 0.977493 0.829374
0.174395 1 0.975464
0.181674 1 0.972198
0.202899 1 0.962097
0.256321 1 0.932372
0.375601 1 0.863157
0.770565 1 0.835111
0.942641 1 0.823697
1 1 0.819181
1 1 0.81767
0.176318 1 0.979446
0.183597 1 0.976104
0.204807 1 0.965728
0.258122 1 0.93521
0.372183 1 0.862043
0.75996 1 0.831266
0.934157 1 0.819791
0.993408 1 0.815244
1 1 0.813718
0.32871 0 1
0.362264 0 1
0.458579 0 1
0.666835 0 1
0.91986 0.0462196 1
1 0.152529 1
1 0.165728 1
1 0.171145 1
1 0.172976 1
0.289418 0 1
0.327352 0 1
0.428702 0 1
0.649042 0 1
0.909895 0.0509194 1
1 0.154559 1
1 0.168063 1
1 0.173556 1
1 0.175402 1
0.109621 0.0383459 1
0.183612 0.00885023 1
0.323323 0 1
0.590372 0 1
0.878599 0.0672007 1
1 0.160449 1
1 0.174945 1
1 0.180697 1
1 0.18262 1
0 0.29929 0.989837
0 0.283299 0.994308
0 0.226612 1
0.36437 0.0906233 1
0.780667 0.124193 1
1 0.175021 1
1 0.192691 1
1 0.199237 1
1 0.201373 1
0 0.698848 0.977722
0 0.694133 0.979019
0 0.679362 0.983703
0.123171 0.633494 1
0.666056 0.591485 1
0.981949 0.549828 1
1 0.524636 1
1 0.515419 1
1 0.512734 1
0 0.926909 0.99556
0 0.924483 0.994675
0.002533 0.917082 0.992233
0.160235 0.896269 0.987686
0.469963 0.87303 1
0.865538 0.846159 0.993454
1 0.830472 0.984054
1 0.824247 0.980331
1 0.822156 0.979095
0.175952 1 1
0.18233 1 1
0.201129 1 1
0.249607 1 0.996521
0.371435 0.989914 0.980362
0.791043 0.972564 0.968811
0.959136 0.959136 0.959136
1 0.953826 0.955322
1 0.952041 0.95404
0.181003 1 1
0.187472 1 1
0.206516 1 1
0.255222 1 1
0.362356 1 0.970703
0.759655 1 0.958968
0.933913 1 0.949172
0.993179 0.999603 0.945312
1 0.997909 0.944015
0.182712 1 1
0.189212 1 1
0.208301 1 1
0.257053 1 1
0.359152 1 0.968292
0.748882 1 0.955657
0.925338 1 0.94583
0.985168 1 0.941955
1 1 0.940658
0.341161 0 1
0.373663 0 1
0.466178 0 1
0.672251 0 1
0.924422 0.0323339 1
1 0.156054 1
1 0.168307 1
1 0.173434 1
1 0.175174 1
0.30341 0 1
0.339864 0 1
0.436744 0 1
0.654429 0 1
0.914244 0.0376287 1
1 0.15787 1
1 0.170459 1
1 0.175692 1
1 0.177447 1
0.138933 0.0322576 1
0.204395 0.00289921 1
0.335958 0 1
0.595865 0 1
0.882292 0.0556497 1
1 0.162661 1
1 0.176822 1
1 0.18233 1
1 0.184176 1
0 0.272053 1
0 0.254231 1
0 0.189395 1
0.371206 0.0703746 1
0.782696 0.118334 1
1 0.172595 1
1 0.193057 1
1 0.199466 1
1 0.201572 1
0 0.689235 1
0 0.68426 1
0 0.668666 1
0.104204 0.620249 1
0.661082 0.574304 1
0.978683 0.531243 1
1 0.505379 1
1 0.496925 1
1 0.494469 1
0 0.92166 1
0 0.919066 1
0 0.911131 1
0.123644 0.888655 1
0.463981 0.861692 1
0.861799 0.834546 1
1 0.818616 1
1 0.812284 1
1 0.810162 1
0.130068 1 1
0.138476 1 1
0.162951 1 1
0.224979 1 1
0.373114 0.979461 1
0.786892 0.962615 1
0.955795 0.949035 1
1 0.943664 0.999466
1 0.941863 0.99826
0.183963 1 1
0.190112 1 1
0.20827 1 1
0.25507 1 1
0.357183 1 1
0.755337 1 1
0.930465 0.995056 0.993637
0.98996 0.98996 0.98996
1 0.988251 0.988739
0.18558 1 1
0.19176 1 1
0.209995 1 1
0.256901 1 1
0.35407 1 1
0.744488 1 0.999802
0.921859 1 0.990448
0.981933 1 0.98677
1 1 0.985534
0.34522 0 1
0.377386 0 1
0.468681 0 1
0.674052 0 1
0.925917 0.0277562 1
1 0.157275 1
1 0.169207 1
1 0.174243 1
1 0.175952 1
0.307942 0 1
0.343938 0 1
0.439384 0 1
0.656214 0 1
0.915679 0.0332341 1
1 0.15787 1
1 0.171313 1
1 0.17644 1
1 0.17818 1
0.147738 0.0302434 1
0.210925 0.000915541 1
0.340078 0 1
0.597696 0 1
0.883528 0.0518044 1
1 0.159869 1
1 0.177493 1
1 0.182925 1
1 0.184741 1
0 0.262379 1
0 0.243824 1
0 0.175586 1
0.374319 0.0664225 1
0.783444 0.116228 1
1 0.171389 1
1 0.193256 1
1 0.199603 1
1 0.201694 1
0 0.685954 1
0 0.680888 1
0 0.665019 1
0.097322 0.615778 1
0.659403 0.56846 1
0.9776 0.524895 1
1 0.498939 1
1 0.490745 1
1 0.488365 1
0 0.919829 1
0 0.917174 1
0 0.909072 1
0.110338 0.886061 1
0.46247 0.857847 1
0.860548 0.83064 1
1 0.814633 1
1 0.808255 1
1 0.806119 1
0.0985275 1 1
0.109407 1 1
0.139986 1 1
0.212833 0.998856 1
0.37377 0.975967 1
0.785519 0.959274 1
0.954681 0.945647 1
1 0.940246 1
1 0.93843 1
0.185 1 1
0.191043 1 1
0.208911 1 1
0.25507 1 1
0.355978 1 1
0.753887 1 1
0.92932 0.991852 1
0.988891 0.986725 1
1 0.985016 1
0.186572 1 1
0.19266 1 1
0.21062 1 1
0.256901 1 1
0.352377 1 1
0.743023 1 1
0.920699 1 1
0.980835 1 1
1 1 1
