src/lutgen/engine/data/base_dwg_di_to_rec709_g24.cube
TITLE "Generated by Resolve"
LUT_3D_SIZE 33
0 0 0
0.0250095 0.000762951 0.00132753
0.054902 0.00167849 0.00289921
0.094377 0.00289921 0.00500496
0.137087 0.00451667 0.00779736
0.182086 0.00665293 0.01149
0.230411 0.00947585 0.0163424
0.282765 0.013138 0.0226902
0.339651 0.0178988 0.0308843
0.401312 0.0239719 0.0413672
0.46772 0.0316167 0.0545815
0.538476 0.041062 0.0708782
0.612757 0.0524605 0.0905318
0.689296 0.0658274 0.110903
0.766369 0.0809949 0.131426
0.841962 0.0969863 0.151553
0.91397 0.111986 0.170733
0.980499 0.125841 0.188449
1 0.138247 0.204318
1 0.14905 0.218112
1 0.158175 0.22977
1 0.165698 0.239399
1 0.171771 0.247181
1 0.176608 0.253346
1 0.180377 0.258167
1 0.183291 0.261891
1 0.185534 0.264759
1 0.187228 0.266926
1 0.18851 0.268574
1 0.189487 0.26981
1 0.190204 0.270741
1 0.190753 0.271443
1 0.191165 0.271962
0.000946059 0.0211795 0.00517281
0.0169985 0.0191196 0.00164797
0.0433814 0.0184634 0
0.0803998 0.0168765 0
0.124025 0.0146181 0
0.169146 0.0115511 0
0.220371 0.0138094 0
0.27512 0.0170291 0.00529488
0.333989 0.0211643 0.0129091
0.397345 0.0264591 0.0226596
0.464927 0.0334325 0.0352636
0.536065 0.0428779 0.0516365
0.610651 0.0542763 0.0713512
0.687434 0.0676432 0.0941634
0.764706 0.0830396 0.116655
0.840452 0.0986038 0.138323
0.912596 0.113466 0.158709
0.979232 0.127214 0.177371
1 0.139544 0.193973
1 0.150256 0.208347
1 0.159335 0.220447
1 0.166827 0.230411
1 0.172869 0.238437
1 0.177676 0.244785
1 0.18143 0.24976
1 0.184329 0.253605
1 0.186557 0.256535
1 0.188251 0.258778
1 0.189532 0.260471
1 0.190494 0.261738
1 0.191226 0.262699
1 0.19176 0.263416
1 0.192172 0.263951
0.00209049 0.0464942 0.0113527
0.0121157 0.0426642 0.00199893
0.0373236 0.0419776 0.00361639
0.0716716 0.0413519 0.000717174
0.116289 0.0395209 0
0.162661 0.0366674 0
0.211734 0.0327306 0
0.264332 0.0274662 0
0.323598 0.0277867 0
0.38854 0.0331121 0.00383001
0.45771 0.0397955 0.0160525
0.5308 0.0480354 0.0311894
0.607095 0.057969 0.049485
0.685206 0.0698405 0.0712139
0.762722 0.0851911 0.0969253
0.838666 0.100542 0.121035
0.910964 0.115236 0.143236
0.977707 0.128847 0.163272
1 0.14107 0.180911
1 0.15172 0.196063
1 0.160723 0.208774
1 0.16817 0.219181
1 0.174182 0.227543
1 0.178958 0.234165
1 0.182681 0.239322
1 0.18558 0.24332
1 0.187793 0.246357
1 0.189471 0.248676
1 0.190753 0.250431
1 0.191699 0.251743
1 0.192432 0.252735
1 0.192966 0.253483
1 0.193378 0.254032
0.00360113 0.0802014 0.0195926
0.00840772 0.0776379 0.00613413
0.0310826 0.0732586 0.00402838
0.0643778 0.0724346 0.00622568
0.107408 0.0717632 0.00234989
0.154635 0.0695659 0
0.204776 0.0659953 0
0.258366 0.0609598 0
0.315923 0.0542458 0
0.377752 0.0455177 0
0.447562 0.0485847 0
0.522072 0.0568704 0.00614939
0.599496 0.0668345 0.0243534
0.678676 0.0784924 0.0457618
0.757977 0.0915999 0.0700999
0.835447 0.104555 0.0962081
0.908766 0.117601 0.120272
0.975692 0.131029 0.142702
1 0.143114 0.162097
1 0.153658 0.178546
1 0.162585 0.192203
1 0.169955 0.203326
1 0.175921 0.212238
1 0.180652 0.219257
1 0.18436 0.224704
1 0.187228 0.228916
1 0.189425 0.232136
1 0.191104 0.234562
1 0.19237 0.236408
1 0.193317 0.237797
1 0.194034 0.238834
1 0.194568 0.239612
1 0.194965 0.240192
0.00560006 0.120073 0.0305333
0.00891127 0.118425 0.0168307
0.0233921 0.113375 0.00642405
0.05626 0.111131 0.00672923
0.099443 0.110246 0.00970474
0.145495 0.109606 0.004654
0.196246 0.107378 0
0.250797 0.103532 0
0.309331 0.0978866 0
0.37203 0.090074 0
0.438911 0.0791638 0
0.510338 0.0684825 0
0.589319 0.0785229 0
0.669749 0.0902266 0.0125277
0.750042 0.102251 0.0367437
0.828305 0.114443 0.0632792
0.902525 0.126375 0.0910658
0.970855 0.137606 0.115434
1 0.147829 0.136049
1 0.156832 0.153307
1 0.165042 0.168017
1 0.17232 0.180362
1 0.178225 0.190173
1 0.18291 0.197848
1 0.186587 0.2038
1 0.189425 0.208362
1 0.191592 0.211841
1 0.193256 0.214481
1 0.194507 0.216464
1 0.195453 0.217975
1 0.196155 0.219089
1 0.196689 0.219928
1 0.197086 0.220554
0.00825513 0.161837 0.0449836
0.0114595 0.160479 0.0318456
0.0176547 0.158495 0.0145724
0.0442359 0.15201 0.00775158
0.0897231 0.151049 0.0103304
0.13727 0.150134 0.0142977
0.186587 0.149523 0.00781262
0.241581 0.147326 0
0.300999 0.14345 0
0.364675 0.137789 0
0.432456 0.130037 0
0.504005 0.119753 0
0.578546 0.106325 0
0.657801 0.104097 0
0.739452 0.115267 0
0.818784 0.12665 0.0193332
0.893858 0.137865 0.0470893
0.96286 0.148501 0.0750134
1 0.158221 0.100877
1 0.166796 0.121508
1 0.174136 0.138033
1 0.180255 0.151171
1 0.185229 0.161517
1 0.189197 0.169589
1 0.192309 0.175799
1 0.194736 0.18056
1 0.196582 0.184192
1 0.198001 0.186923
1 0.199069 0.188998
1 0.199878 0.190539
1 0.200488 0.191714
1 0.200946 0.192584
1 0.201282 0.193225
0.0117342 0.206668 0.0639963
0.0148928 0.205539 0.0511788
0.019028 0.204242 0.0337224
0.0359197 0.20032 0.0174563
0.0740826 0.194949 0.0116121
0.127062 0.193927 0.0150912
0.17789 0.19295 0.0203403
0.23122 0.19234 0.0120851
0.290944 0.190127 0.00102235
0.355474 0.186175 0
0.424231 0.180453 0
0.496696 0.172747 0
0.572061 0.162814 0
0.649104 0.150347 0
0.726238 0.135073 0
0.806134 0.141451 0
0.882353 0.151919 0
0.952255 0.161898 0.0172885
1 0.171069 0.0440833
1 0.179187 0.0688487
1 0.18616 0.0908217
1 0.191974 0.107683
1 0.196719 0.120562
1 0.200504 0.130388
1 0.203494 0.137881
1 0.205798 0.143557
1 0.207568 0.147845
1 0.208927 0.151064
1 0.209949 0.15349
1 0.210727 0.155306
1 0.211307 0.15668
1 0.211749 0.157687
1 0.21207 0.15845
0.0162966 0.255253 0.0888838
0.0194095 0.254307 0.0762036
0.0233921 0.253208 0.0596933
0.0291905 0.251804 0.034699
0.0602426 0.245914 0.0210727
0.11104 0.241489 0.0167086
0.166995 0.240406 0.0213321
0.221897 0.239353 0.0282444
0.279759 0.238727 0.0178378
0.344442 0.2365 0.0030518
0.414038 0.232471 0
0.48748 0.226688 0
0.56379 0.219104 0
0.641688 0.209598 0
0.719539 0.198184 0
0.795453 0.184909 0
0.867445 0.170047 0
0.938293 0.178088 0
1 0.186679 0
1 0.194308 0
1 0.200885 0.0155642
1 0.206378 0.0343938
1 0.21088 0.0501106
1 0.214466 0.0628977
1 0.217288 0.0730907
1 0.219486 0.0813458
1 0.221164 0.0874189
1 0.222461 0.0919356
1 0.223438 0.0952773
1 0.22417 0.0977646
1 0.22472 0.0996109
1 0.225147 0.100999
1 0.225452 0.102022
0.0221866 0.308034 0.116884
0.0252689 0.30724 0.106554
0.02916 0.306294 0.0923781
0.0346685 0.305089 0.069337
0.0474403 0.302831 0.0392004
0.0924697 0.295598 0.0254673
0.15021 0.292088 0.0233768
0.210208 0.290913 0.0294957
0.269703 0.289769 0.0384527
0.332341 0.289128 0.0255589
0.401968 0.28687 0.00616464
0.476188 0.282811 0
0.553475 0.277073 0
0.632334 0.269718 0
0.71104 0.260853 0
0.787686 0.250645 0
0.860288 0.239399 0
0.927062 0.227527 0
0.986679 0.215549 0
1 0.212421 0
1 0.218585 0
1 0.223743 0
1 0.22797 0
1 0.231342 0
1 0.234012 0
1 0.236088 0
1 0.237675 0
1 0.238895 0
1 0.239811 0
1 0.240513 0.00111391
1 0.241032 0.00317388
1 0.241428 0.00471504
1 0.241718 0.00587472
0.0297093 0.365255 0.147234
0.0327916 0.364569 0.138567
0.0366064 0.363775 0.127123
0.0419165 0.362722 0.109545
0.0494392 0.361364 0.0798962
0.0764324 0.35758 0.0486
0.128328 0.349462 0.0306096
0.192538 0.346929 0.0320439
0.257176 0.345647 0.0400092
0.321538 0.344427 0.0514992
0.388907 0.343771 0.0358434
0.46302 0.341527 0.0109255
0.541024 0.337484 0
0.620813 0.331914 0
0.700465 0.324987 0
0.777951 0.316945 0
0.851286 0.30811 0
0.918654 0.298878 0
0.978759 0.289647 0
1 0.280842 0
1 0.272786 0
1 0.26566 0
1 0.259586 0
1 0.254551 0
1 0.253834 0
1 0.255772 0
1 0.257282 0
1 0.258412 0
1 0.259281 0
1 0.259937 0
1 0.260426 0
1 0.260807 0
1 0.261082 0
0.0391852 0.426886 0.179919
0.0422522 0.426291 0.172549
0.0460212 0.425605 0.163073
0.0512093 0.424689 0.149111
0.0584421 0.423499 0.127443
0.0686198 0.421988 0.0904707
0.112398 0.41648 0.0596628
0.167102 0.40737 0.0362554
0.238636 0.405982 0.0431525
0.308171 0.404593 0.0534218
0.377356 0.403281 0.0679332
0.449042 0.402609 0.0494698
0.526772 0.400427 0.0181277
0.607172 0.396536 0
0.687709 0.391287 0
0.766094 0.38497 0
0.840223 0.377951 0
0.908293 0.370581 0
0.968948 0.363241 0
1 0.356268 0
1 0.34992 0
1 0.34435 0
1 0.339635 0
1 0.335744 0
1 0.332616 0
1 0.330129 0
1 0.328191 0
1 0.326696 0
1 0.325551 0
1 0.324681 0
1 0.324025 0
1 0.323537 0
1 0.323171 0
0.0509041 0.492546 0.21474
0.0539559 0.492027 0.208408
0.0576944 0.491432 0.200412
0.0627909 0.490639 0.188922
0.06981 0.489586 0.171893
0.0795605 0.488243 0.145235
0.0930495 0.486534 0.0985428
0.151125 0.479042 0.0720836
0.212436 0.470268 0.0477913
0.288914 0.468864 0.0572213
0.363272 0.467384 0.0702678
0.436835 0.465995 0.0883345
0.511971 0.465324 0.0673075
0.591943 0.463279 0.0288396
0.672938 0.459648 0
0.752087 0.454871 0
0.827024 0.449348 0
0.895827 0.443458 0
0.957122 0.437537 0
1 0.431907 0
1 0.42678 0
1 0.422293 0
1 0.418494 0
1 0.415381 0
1 0.412863 0
1 0.41088 0
1 0.409323 0
1 0.408133 0
1 0.407233 0
1 0.406531 0
1 0.406012 0
1 0.405615 0
1 0.405325 0
0.0650339 0.561471 0.251301
0.0680858 0.561028 0.245808
0.0717937 0.56051 0.238941
0.0768292 0.559808 0.229252
0.0839399 0.558892 0.21529
0.092958 0.557687 0.194476
0.104631 0.556161 0.161486
0.129274 0.553216 0.11252
0.19353 0.544335 0.0852216
0.262547 0.53637 0.0627146
0.343557 0.534859 0.0747234
0.422202 0.533288 0.0909133
0.49929 0.531853 0.110155
0.576547 0.531182 0.0903182
0.656916 0.529335 0.0444038
0.73637 0.526101 0.00863661
0.811917 0.52195 0
0.881392 0.517327 0
0.943313 0.512581 0
0.996902 0.508019 0
1 0.503838 0
1 0.500175 0
1 0.497063 0
1 0.494499 0
1 0.492454 0
1 0.490822 0
1 0.489555 0
1 0.488579 0
1 0.487831 0
1 0.487266 0
1 0.486839 0
1 0.486519 0
1 0.486275 0
0.0818494 0.632502 0.288975
0.0848554 0.632105 0.284138
0.0884108 0.631647 0.278157
0.0931106 0.631022 0.269825
0.0992752 0.630213 0.258045
0.107301 0.629145 0.240986
0.117708 0.627771 0.215366
0.131106 0.626017 0.174075
0.172747 0.621027 0.128557
0.240116 0.611002 0.0964981
0.317571 0.60441 0.0812848
0.402441 0.602792 0.095613
0.484382 0.60116 0.112749
0.563622 0.59968 0.132647
0.64126 0.599023 0.115648
0.71989 0.597467 0.0663157
0.795529 0.59472 0.0255436
0.865431 0.591287 0
0.927871 0.587594 0
0.981949 0.583947 0
1 0.58056 0
1 0.577554 0
1 0.575006 0
1 0.5729 0
1 0.571191 0
1 0.569848 0
1 0.568795 0
1 0.567987 0
1 0.567376 0
1 0.566903 0
1 0.566552 0
1 0.566278 0
1 0.566079 0
0.0995193 0.704021 0.326909
0.102205 0.70367 0.322606
0.105394 0.703243 0.317311
0.109606 0.702693 0.310018
0.115129 0.701961 0.299825
0.122347 0.701015 0.285374
0.131716 0.699763 0.264347
0.143771 0.698177 0.23241
0.159182 0.696193 0.179675
0.220798 0.688563 0.142168
0.291127 0.677256 0.104311
0.377493 0.672831 0.101854
0.465095 0.671138 0.11725
0.548806 0.669474 0.135149
0.628397 0.667994 0.155306
0.704372 0.667338 0.142473
0.779034 0.666133 0.0954604
0.848814 0.66392 0.0509804
0.911467 0.66125 0.0160525
0.965866 0.658442 0
1 0.655756 0
1 0.65333 0
1 0.651255 0
1 0.649516 0
1 0.648112 0
1 0.646998 0
1 0.646128 0
1 0.645457 0
1 0.644953 0
1 0.644556 0
1 0.644266 0
1 0.644038 0
1 0.64387 0
0.116869 0.774151 0.364111
0.119295 0.773846 0.360235
0.122179 0.773465 0.355489
0.125978 0.772961 0.348989
0.130999 0.772305 0.340002
0.137545 0.771435 0.327413
0.146059 0.770306 0.309483
0.157031 0.768856 0.283207
0.171038 0.76701 0.242664
0.197391 0.763851 0.182406
0.273671 0.753704 0.151766
0.347326 0.741497 0.109056
0.441825 0.739818 0.123064
0.53051 0.738094 0.139345
0.614069 0.736431 0.157656
0.691936 0.734981 0.177508
0.764126 0.734325 0.170184
0.832822 0.733471 0.126986
0.895155 0.731838 0.0863966
0.949584 0.729854 0.0498054
0.995651 0.72784 0.0217136
1 0.725963 1.5259e-05
1 0.7243 0
1 0.722896 0
1 0.721767 0
1 0.720851 0
1 0.720134 0
1 0.719585 0
1 0.719158 0
1 0.718822 0
1 0.718578 0
1 0.718395 0
1 0.718257 0
0.133379 0.84097 0.399542
0.135607 0.840681 0.396017
0.138247 0.840345 0.391699
0.141726 0.839887 0.385809
0.146319 0.839277 0.377737
0.152346 0.838483 0.366522
0.160174 0.837446 0.35079
0.17026 0.836118 0.328237
0.183139 0.834409 0.294789
0.19942 0.832303 0.241932
0.253758 0.825788 0.19205
0.331167 0.814298 0.155505
0.415213 0.805249 0.12958
0.509529 0.80351 0.144549
0.597269 0.80177 0.161395
0.678492 0.800168 0.179644
0.752468 0.79881 0.198672
0.818998 0.798123 0.197955
0.880217 0.79762 0.159289
0.934188 0.79649 0.125154
0.980102 0.795132 0.0944381
1 0.793759 0.0669108
1 0.792508 0.0457313
1 0.791409 0.0296483
1 0.790509 0.0174563
1 0.789776 0.00825513
1 0.789197 0.00132753
1 0.788754 0
1 0.788403 0
1 0.788144 0
1 0.787945 0
1 0.787793 0
1 0.787686 0
0.148653 0.902708 0.432288
0.150698 0.902449 0.429023
0.15314 0.902129 0.425055
0.156374 0.901701 0.419638
0.160647 0.901137 0.412253
0.166232 0.900404 0.402075
0.17351 0.899443 0.38793
0.182895 0.898192 0.367971
0.194873 0.896605 0.339071
0.210025 0.894621 0.29546
0.231952 0.89189 0.226703
0.314748 0.881315 0.195254
0.392508 0.868452 0.151293
0.486809 0.863966 0.15021
0.578958 0.862211 0.165881
0.663539 0.860533 0.182864
0.74023 0.859022 0.200549
0.808392 0.857771 0.218219
0.867842 0.857038 0.224887
0.920745 0.856809 0.19115
0.96614 0.856123 0.162707
1 0.855253 0.138705
1 0.854383 0.118502
1 0.85359 0.101671
1 0.852918 0.0877546
1 0.852354 0.0762493
1 0.851911 0.0677195
1 0.851545 0.061326
1 0.851286 0.0565347
1 0.851072 0.0529641
1 0.850919 0.0502937
1 0.850797 0.0483101
1 0.850706 0.0468299
0.162325 0.958007 0.461616
0.164248 0.957763 0.458564
0.166537 0.957458 0.454856
0.169558 0.957061 0.449821
0.173571 0.956542 0.442954
0.178805 0.955856 0.433555
0.185657 0.95494 0.420584
0.194476 0.95378 0.402457
0.205768 0.952285 0.376669
0.220005 0.950393 0.338827
0.237751 0.948104 0.279942
0.297917 0.940902 0.228199
0.379431 0.928893 0.190204
0.463447 0.918105 0.15584
0.560204 0.916365 0.170581
0.648096 0.914641 0.186557
0.727352 0.913054 0.203189
0.797589 0.911696 0.219821
0.858488 0.910597 0.235737
0.910048 0.909773 0.250111
0.954513 0.909758 0.221363
0.991714 0.909392 0.197971
1 0.908904 0.179004
1 0.9084 0.163745
1 0.907927 0.151598
1 0.90753 0.142031
1 0.907195 0.134569
1 0.906935 0.128801
1 0.906737 0.124376
1 0.906569 0.121004
1 0.906447 0.118456
1 0.906355 0.116518
1 0.906294 0.115068
0.174212 1 0.487114
0.176028 1 0.48423
0.178195 1 0.48072
0.181064 1 0.475959
0.184863 1 0.469505
0.189853 1 0.4607
0.196338 1 0.4486
0.20473 1 0.431815
0.215457 1 0.408209
0.229007 0.998856 0.374212
0.245869 0.996643 0.323095
0.281392 0.992432 0.255421
0.366735 0.981094 0.221256
0.446326 0.967712 0.17496
0.541924 0.963439 0.175113
0.633036 0.961715 0.190295
0.714702 0.960098 0.206119
0.786816 0.958663 0.221927
0.849226 0.957458 0.237049
0.902037 0.956512 0.250965
0.945739 0.955795 0.263279
0.98201 0.955703 0.248981
1 0.955581 0.229984
1 0.955337 0.215
1 0.955062 0.203265
1 0.954818 0.194156
1 0.954604 0.187137
1 0.954421 0.181765
1 0.954284 0.177691
1 0.954177 0.174594
1 0.954086 0.172274
1 0.954025 0.17052
1 0.953964 0.169207
0.184253 1 0.508675
0.185992 1 0.505913
0.188067 1 0.502556
0.190829 1 0.498024
0.194461 1 0.491875
0.199237 1 0.483513
0.205463 1 0.472053
0.213504 1 0.456275
0.223804 1 0.434226
0.23682 1 0.402884
0.252995 1 0.356786
0.272801 1 0.284306
0.354955 1 0.246082
0.436973 1 0.204303
0.524926 1 0.179217
0.619074 1 0.193805
0.702922 0.999893 0.208988
0.776715 0.998413 0.224155
0.840436 0.997162 0.238666
0.894301 0.996139 0.252018
0.938857 0.995346 0.263828
0.974975 0.994751 0.27396
1 0.994492 0.27332
1 0.994507 0.258106
1 0.994415 0.246326
1 0.994308 0.237263
1 0.994186 0.23032
1 0.994095 0.22504
1 0.994003 0.221042
1 0.993942 0.218021
1 0.993881 0.215763
1 0.993835 0.214054
1 0.993805 0.212787
0.192554 1 0.526467
0.194232 1 0.523796
0.196231 1 0.520562
0.198886 1 0.516197
0.202411 1 0.510292
0.207019 1 0.502251
0.213046 1 0.491295
0.220829 1 0.476219
0.230793 1 0.455329
0.243381 1 0.425864
0.259052 1 0.383185
0.278202 1 0.317998
0.344457 1 0.265812
0.428687 1 0.227024
0.509728 1 0.182788
0.606653 1 0.196887
0.692439 1 0.211597
0.767697 1 0.226261
0.832547 1 0.240314
0.887297 1 0.253223
0.932555 1 0.264668
0.969238 1 0.274449
0.998459 1 0.282597
1 1 0.289219
1 1 0.282094
1 1 0.272892
1 1 0.265888
1 1 0.260578
1 1 0.256565
1 1 0.253544
1 1 0.251286
1 1 0.249592
1 1 0.24831
0.199252 1 0.540841
0.200885 1 0.538247
0.202838 1 0.535103
0.205417 1 0.530861
0.208835 1 0.525124
0.213321 1 0.517342
0.219196 1 0.506737
0.22678 1 0.492226
0.236484 1 0.47216
0.248753 1 0.444053
0.264027 1 0.403754
0.282689 1 0.343389
0.335424 1 0.281315
0.421607 1 0.244617
0.501122 1 0.196643
0.596002 1 0.199512
0.683467 1 0.21384
0.759945 1 0.228138
0.825742 1 0.24184
0.881224 1 0.254414
0.927062 1 0.265553
0.964202 1 0.275105
0.993774 1 0.28304
1 1 0.289479
1 1 0.294606
1 1 0.298634
1 1 0.294865
1 1 0.289479
1 1 0.285405
1 1 0.282353
1 1 0.280079
1 1 0.278355
1 1 0.277073
0.204562 1 0.552239
0.206165 1 0.549691
0.208072 1 0.546624
0.210605 1 0.542489
0.213947 1 0.536873
0.218341 1 0.52929
0.224094 1 0.518959
0.231525 1 0.504845
0.241032 1 0.48539
0.253071 1 0.458274
0.26804 1 0.419684
0.28632 1 0.362615
0.327886 1 0.293385
0.415702 1 0.258152
0.496345 1 0.212665
0.587121 1 0.201678
0.676005 1 0.215717
0.753506 1 0.229725
0.820066 1 0.243153
0.876143 1 0.255482
0.922438 1 0.266407
0.959945 1 0.275746
0.989807 1 0.283528
1 1 0.289845
1 1 0.294865
1 1 0.298802
1 1 0.301854
1 1 0.304204
1 1 0.305974
1 1 0.305425
1 1 0.303105
1 1 0.301381
1 1 0.300084
0.208713 1 0.561151
0.210285 1 0.558663
0.212161 1 0.555642
0.214664 1 0.551568
0.217945 1 0.546059
0.222278 1 0.538613
0.227939 1 0.528481
0.235248 1 0.514672
0.244617 1 0.495674
0.256458 1 0.469276
0.271199 1 0.431907
0.289204 1 0.377172
0.321736 1 0.302708
0.410941 1 0.268528
0.49247 1 0.224781
0.579919 1 0.203403
0.669947 1 0.217227
0.748272 1 0.231022
0.815457 1 0.244236
0.872007 1 0.256382
0.918669 1 0.26714
0.956466 1 0.276341
0.986557 1 0.284001
1 1 0.290211
1 1 0.295171
1 1 0.299046
1 1 0.302052
1 1 0.304356
1 1 0.306096
1 1 0.307424
1 1 0.308431
1 1 0.309178
1 1 0.309743
0.211933 1 0.568048
0.213489 1 0.565576
0.215335 1 0.5626
0.217792 1 0.558587
0.221042 1 0.553155
0.22533 1 0.5458
0.230915 1 0.535836
0.238132 1 0.52224
0.247395 1 0.503594
0.259098 1 0.477729
0.273671 1 0.441245
0.291463 1 0.388159
0.316823 1 0.309834
0.407141 1 0.276432
0.489403 1 0.233906
0.574182 1 0.204761
0.665141 1 0.218418
0.744121 1 0.232059
0.811795 1 0.245121
0.868711 1 0.25713
0.915663 1 0.26775
0.953689 1 0.276844
0.983948 1 0.284413
1 1 0.290562
1 1 0.295445
1 1 0.299275
1 1 0.302251
1 1 0.304524
1 1 0.306249
1 1 0.307561
1 1 0.308553
1 1 0.3093
1 1 0.30985
0.214389 1 0.573327
0.21593 1 0.570886
0.217762 1 0.567941
0.220203 1 0.563958
0.223423 1 0.558587
0.227665 1 0.551324
0.233188 1 0.541451
0.24036 1 0.528023
0.249531 1 0.509621
0.261128 1 0.484154
0.275563 1 0.448341
0.293202 1 0.396445
0.314305 1 0.316579
0.404166 1 0.282414
0.486992 1 0.240772
0.56968 1 0.205814
0.661387 1 0.219364
0.740871 1 0.232883
0.808927 1 0.245823
0.866133 1 0.25771
0.913314 1 0.268238
0.951492 1 0.277256
0.981888 1 0.284764
1 1 0.290852
1 1 0.295689
1 1 0.299489
1 1 0.302434
1 1 0.304692
1 1 0.306401
1 1 0.307698
1 1 0.30869
1 1 0.309422
1 1 0.309972
0.216266 1 0.57734
0.217792 1 0.574914
0.219608 1 0.572
0.222034 1 0.568048
0.225238 1 0.562707
0.229435 1 0.555505
0.234928 1 0.545724
0.242039 1 0.532433
0.251164 1 0.514214
