src/lutgen/engine/data/base_dwg_di_to_rec709_g24.cube
TITLE "Generated by Resolve"
LUT_3D_SIZE 5
0 0 0
0.339651 0.0178988 0.0308843
0.91397 0.111986 0.170733
1 0.180377 0.258167
1 0.191165 0.271962
0.0221866 0.308034 0.116884
0.269703 0.289769 0.0384527
0.860288 0.239399 0
1 0.234012 0
1 0.241718 0.00587472
0.133379 0.84097 0.399542
0.183139 0.834409 0.294789
0.752468 0.79881 0.198672
1 0.790509 0.0174563
1 0.787686 0
0.208713 1 0.561151
0.244617 1 0.495674
0.669947 1 0.217227
1 1 0.295171
1 1 0.309743
0.2206 1 0.586648
0.254932 1 0.524788
0.651576 1 0.221775
1 1 0.296422
1 1 0.310384
0.0460975 0 0.283375
0.333349 0.0158694 0.291371
0.909361 0.0927138 0.360021
1 0.156435 0.407935
1 0.168383 0.417136
0.0172732 0.269993 0.266316
0.247028 0.247028 0.247028
0.877943 0.136919 0.185519
1 0.182162 0.256291
1 0.192874 0.270161
0.105135 0.823896 0.471
0.158877 0.816785 0.397223
0.739879 0.784268 0.227466
1 0.768353 0.153674
1 0.764736 0.139254
0.189288 1 0.614176
0.22678 1 0.559335
0.634028 1 0.259068
1 1 0.315694
1 1 0.32723
0.202106 1 0.637491
0.237842 1 0.584894
0.612467 1 0.264256
1 1 0.318944
1 1 0.329992
0.224002 0 0.784039
0.40058 0 0.777249
0.899428 0.100923 0.802502
1 0.154177 0.844236
1 0.163531 0.85005
0 0.0944686 0.752514
0.231571 0 0.761868
0.863294 0.113878 0.770581
1 0.16907 0.800565
1 0.178286 0.805356
0.108644 0.753109 0.74464
0.144076 0.742596 0.734401
0.700099 0.700099 0.700099
1 0.645182 0.661082
1 0.634211 0.653422
0.159258 1 0.848478
0.193332 1 0.824994
0.410788 1 0.609552
0.982345 1 0.546014
1 1 0.536629
0.168215 1 0.865217
0.201556 1 0.840986
0.395239 1 0.619257
0.949477 1 0.521263
1 1 0.511406
0.32871 0 1
0.458579 0 1
0.91986 0.0462196 1
1 0.165728 1
1 0.172976 1
0.109621 0.0383459 1
0.323323 0 1
0.878599 0.0672007 1
1 0.174945 1
1 0.18262 1
0 0.698848 0.977722
0 0.679362 0.983703
0.666056 0.591485 1
1 0.524636 1
1 0.512734 1
0.175952 1 1
0.201129 1 1
0.371435 0.989914 0.980362
0.959136 0.959136 0.959136
1 0.952041 0.95404
0.182712 1 1
0.208301 1 1
0.359152 1 0.968292
0.925338 1 0.94583
1 1 0.940658
0.34522 0 1
0.468681 0 1
0.925917 0.0277562 1
1 0.169207 1
1 0.175952 1
0.147738 0.0302434 1
0.340078 0 1
0.883528 0.0518044 1
1 0.177493 1
1 0.184741 1
0 0.685954 1
0 0.665019 1
0.659403 0.56846 1
1 0.498939 1
1 0.488365 1
0.0985275 1 1
0.139986 1 1
0.37377 0.975967 1
0.954681 0.945647 1
1 0.93843 1
0.186572 1 1
0.21062 1 1
0.352377 1 1
0.920699 1 1
1 1 1
