src/lutgen/engine/data/base_inverse_rec709_to_dwg_di.cube
TITLE "LookForge base inverse Rec709->DWG/DI"
LUT_3D_SIZE 33
DOMAIN_MIN 0.000000 0.000000 0.000000
DOMAIN_MAX 1.000000 1.000000 1.000000
0.000000 0.000000 0.000000
0.031250 0.000000 0.000000
0.062500 0.000000 0.000000
0.093750 0.000000 0.000000
0.125000 0.031250 0.031250
0.156250 0.031250 0.000000
0.156250 0.000000 0.000000
0.187500 0.031250 0.000000
0.218750 0.062500 0.031250
0.218750 0.031250 0.000000
0.250000 0.062500 0.031250
0.250000 0.031250 0.000000
0.281250 0.093750 0.062500
0.281250 0.031250 0.000000
0.312500 0.093750 0.031250
0.312500 0.062500 0.000000
0.343750 0.125000 0.062500
0.343750 0.093750 0.031250
0.343750 0.062500 0.000000
0.375000 0.093750 0.000000
0.375000 0.093750 0.000000
0.406250 0.156250 0.093750
0.406250 0.125000 0.031250
0.406250 0.093750 0.000000
0.437500 0.125000 0.000000
0.437500 0.125000 0.000000
0.437500 0.125000 0.000000
0.468750 0.156250 0.031250
0.468750 0.156250 0.031250
0.500000 0.156250 0.000000
0.500000 0.156250 0.000000
0.531250 0.187500 0.031250
0.531250 0.187500 0.031250
0.000000 0.031250 0.000000
0.062500 0.062500 0.031250
0.076537 0.043165 0.000000
0.105609 0.050563 0.000000
0.129220 0.052605 0.000000
0.150744 0.055087 0.000000
0.171493 0.058149 0.000000
0.191447 0.061153 0.000000
0.210488 0.064732 0.000000
0.228236 0.068834 0.006334
0.244688 0.068544 0.006044
0.261205 0.073705 0.010738
0.281250 0.093750 0.031250
0.281250 0.062500 0.000000
0.312500 0.093750 0.031250
0.312500 0.062500 0.000000
0.343750 0.125000 0.062500
0.343750 0.093750 0.000000
0.343750 0.062500 0.000000
0.375000 0.125000 0.031250
0.375000 0.093750 0.000000
0.406250 0.156250 0.093750
0.406250 0.125000 0.031250
0.406250 0.125000 0.031250
0.437500 0.156250 0.062500
0.437500 0.125000 0.000000
0.468750 0.156250 0.000000
0.468750 0.156250 0.031250
0.468750 0.156250 0.031250
0.500000 0.187500 0.062500
0.500000 0.156250 0.000000
0.531250 0.187500 0.031250
0.531250 0.187500 0.031250
0.031250 0.093750 0.000000
0.062500 0.093750 0.000000
0.093750 0.093750 0.031250
0.083052 0.056265 0.000000
0.129942 0.079858 0.000000
0.156176 0.087032 0.000000
0.176002 0.089182 0.000000
0.195377 0.091659 0.000000
0.213951 0.094313 0.000000
0.231465 0.097414 0.003664
0.248683 0.100586 0.006836
0.264711 0.104278 0.010528
0.280740 0.108090 0.014340
0.295674 0.112673 0.018923
0.309954 0.113620 0.019870
0.324056 0.114504 0.009198
0.338061 0.119311 0.014601
0.343750 0.093750 0.000000
0.375000 0.156250 0.093750
0.375000 0.125000 0.031250
0.375000 0.093750 0.000000
0.406250 0.156250 0.062500
0.406250 0.125000 0.000000
0.437500 0.187500 0.125000
0.437500 0.156250 0.031250
0.437500 0.125000 0.000000
0.468750 0.156250 0.000000
0.468750 0.156250 0.000000
0.500000 0.187500 0.062500
0.500000 0.187500 0.062500
0.500000 0.156250 0.000000
0.531250 0.187500 0.000000
0.531250 0.187500 0.031250
0.031250 0.093750 0.000000
0.062500 0.093750 0.000000
0.093750 0.125000 0.000000
0.125000 0.125000 0.031250
0.107141 0.066474 0.000000
0.145950 0.101674 0.000000
0.180191 0.114078 0.000000
0.198949 0.115773 0.000000
0.217246 0.117642 0.000000
0.234347 0.119888 0.000000
0.251035 0.125000 0.016826
0.267165 0.125115 0.000115
0.282877 0.128045 0.003045
0.297718 0.131572 0.006572
0.312577 0.135189 0.010189
0.326449 0.138949 0.016154
0.340106 0.145662 0.041324
0.353728 0.148313 0.036648
0.367271 0.150458 0.027394
0.379449 0.147077 0.017628
0.391622 0.144093 0.002471
0.406250 0.156250 0.062500
0.406250 0.125000 0.000000
0.437500 0.187500 0.093750
0.437500 0.156250 0.031250
0.437500 0.156250 0.031250
0.468750 0.187500 0.093750
0.468750 0.156250 0.000000
0.500000 0.187500 0.031250
0.500000 0.187500 0.062500
0.531250 0.187500 0.000000
0.531250 0.187500 0.000000
0.531250 0.187500 0.000000
0.031250 0.125000 0.000000
0.062500 0.125000 0.000000
0.093750 0.125000 0.000000
0.125000 0.125000 0.000000
0.156250 0.125000 0.000000
0.156250 0.125000 0.000000
0.166103 0.112530 0.000000
0.202742 0.138913 0.000000
0.220734 0.140494 0.000000
0.237434 0.142039 0.000000
0.254054 0.144100 0.000000
0.269644 0.146037 0.000000
0.284869 0.151621 0.026621
0.299528 0.154478 0.029478
0.314190 0.156250 0.023118
0.328360 0.156385 0.000270
0.342214 0.159763 0.007027
0.355530 0.163438 0.014376
0.368829 0.167423 0.022346
0.381911 0.171348 0.030195
0.394752 0.176002 0.043120
0.407143 0.183775 0.080788
0.420367 0.183170 0.052524
0.433569 0.183569 0.031030
0.443558 0.171747 0.024233
0.468750 0.187500 0.031250
0.468750 0.187500 0.062500
0.468750 0.156250 0.000000
0.500000 0.218750 0.125000
0.500000 0.187500 0.031250
0.531250 0.218750 0.093750
0.531250 0.187500 0.000000
0.562500 0.218750 0.062500
0.062500 0.156250 0.000000
0.093750 0.156250 0.031250
0.093750 0.156250 0.000000
0.125000 0.156250 0.000000
0.156250 0.156250 0.000000
0.156250 0.156250 0.000000
0.187500 0.156250 0.000000
0.190192 0.122739 0.000000
0.225065 0.158586 0.000000
0.240260 0.164023 0.000000
0.256810 0.165400 0.000000
0.272473 0.168156 0.011906
0.287545 0.170144 0.013894
0.302053 0.172316 0.016066
0.316439 0.174770 0.018520
0.330147 0.177173 0.020923
0.343643 0.183266 0.054032
0.356832 0.186638 0.060777
0.370214 0.187500 0.045801
0.383450 0.187941 0.024122
0.396427 0.190142 0.017749
0.409347 0.192719 0.015656
0.421980 0.198760 0.049300
0.434935 0.201501 0.044569
0.447976 0.205406 0.053718
0.460936 0.210936 0.075707
0.473974 0.218627 0.108835
0.487631 0.206786 0.020500
0.500000 0.208766 0.057097
0.500000 0.187500 0.031250
0.531250 0.218750 0.093750
0.531250 0.187500 0.000000
0.562500 0.218750 0.062500
0.093750 0.187500 0.031250
0.093750 0.187500 0.000000
0.125000 0.187500 0.031250
0.125000 0.187500 0.000000
0.156250 0.187500 0.000000
0.187500 0.187500 0.031250
0.187500 0.187500 0.000000
0.218750 0.187500 0.000000
0.214281 0.132948 0.000000
0.249155 0.168795 0.000000
0.256637 0.184243 0.000000
0.274637 0.187354 0.000000
0.290383 0.189425 0.001925
0.304813 0.191122 0.003622
0.318768 0.193362 0.011724
0.332458 0.195665 0.016330
0.346029 0.197971 0.020943
0.359072 0.200393 0.025787
0.372242 0.203144 0.031287
0.385083 0.205861 0.036722
0.397702 0.210202 0.056512
0.410314 0.215811 0.084933
0.423124 0.218750 0.089098
0.436176 0.218750 0.067520
0.449527 0.218750 0.035196
0.462846 0.219421 0.008587
0.476271 0.222971 0.016882
0.489965 0.227427 0.034706
0.503958 0.231841 0.052366
0.518236 0.234469 0.072945
0.532176 0.230954 0.047891
0.549517 0.237017 0.063548
0.565863 0.218750 0.000000
0.093750 0.187500 0.031250
0.093750 0.187500 0.000000
0.125000 0.187500 0.000000
0.156250 0.218750 0.031250
0.156250 0.187500 0.000000
0.187500 0.218750 0.000000
0.187500 0.187500 0.000000
0.218750 0.187500 0.000000
0.218750 0.187500 0.000000
0.238370 0.143158 0.000000
0.273244 0.179004 0.000000
0.270908 0.200222 0.000000
0.290562 0.207067 0.000000
0.307546 0.211512 0.024012
0.321356 0.213200 0.025700
0.334842 0.214883 0.027383
0.348018 0.218750 0.053128
0.361215 0.218750 0.028461
0.374413 0.218750 0.003913
0.387180 0.220950 0.006601
0.399903 0.223492 0.014225
0.412569 0.226038 0.021863
0.425289 0.228943 0.030579
0.438029 0.231883 0.039400
0.450985 0.234766 0.048048
0.463571 0.242095 0.098557
0.477004 0.245533 0.107132
0.490640 0.249478 0.122912
0.505001 0.250000 0.100938
0.520249 0.250000 0.076994
0.536007 0.250000 0.048929
0.553059 0.250000 0.003241
0.626941 0.250000 0.001941
0.093750 0.218750 0.000000
0.125000 0.218750 0.031250
0.125000 0.218750 0.000000
0.156250 0.218750 0.031250
0.156250 0.218750 0.000000
0.187500 0.218750 0.000000
0.187500 0.218750 0.000000
0.218750 0.218750 0.000000
0.250000 0.218750 0.000000
0.250000 0.218750 0.000000
0.281250 0.218750 0.000000
0.297333 0.189214 0.000000
0.302226 0.215171 0.000000
0.305037 0.224402 0.000000
0.324131 0.230279 0.011529
0.337638 0.231744 0.012994
0.350727 0.233667 0.021894
0.363534 0.235880 0.034261
0.376490 0.237803 0.038106
0.389070 0.239719 0.041939
0.401428 0.244315 0.076696
0.414081 0.246863 0.084338
0.426691 0.249414 0.091992
0.439538 0.250000 0.075387
0.452747 0.250000 0.042895
0.465961 0.250000 0.011563
0.479550 0.251998 0.007994
0.493181 0.255023 0.020091
0.507357 0.257995 0.031979
0.522172 0.261323 0.045290
0.537494 0.265745 0.069224
0.553626 0.271777 0.108885
0.843394 0.281250 0.093631
0.093750 0.218750 0.000000
0.093750 0.218750 0.000000
0.156250 0.250000 0.062500
0.156250 0.250000 0.000000
0.187500 0.250000 0.031250
0.187500 0.250000 0.000000
0.218750 0.250000 0.000000
0.218750 0.250000 0.000000
0.250000 0.250000 0.000000
0.250000 0.250000 0.000000
0.281250 0.250000 0.000000
0.281250 0.250000 0.000000
0.321422 0.199423 0.000000
0.340533 0.230070 0.000000
0.319180 0.240048 0.000000
0.339264 0.247875 0.000000
0.353395 0.250113 0.000113
0.366225 0.251380 0.001380
0.378928 0.252815 0.005629
0.391516 0.254449 0.008898
0.404104 0.256084 0.012167
0.416546 0.258390 0.025169
0.429152 0.260466 0.031397
0.441825 0.262532 0.037595
0.454439 0.266503 0.066010
0.467352 0.269187 0.076748
0.480811 0.271850 0.087400
0.494347 0.274547 0.098186
0.508615 0.277510 0.110039
0.523335 0.280430 0.121719
0.539159 0.281250 0.104531
0.556075 0.281250 0.079974
0.641599 0.284931 0.022084
0.125000 0.250000 0.000000
0.125000 0.250000 0.000000
0.156250 0.250000 0.031250
0.156250 0.250000 0.000000
0.187500 0.250000 0.031250
0.187500 0.250000 0.000000
0.218750 0.250000 0.000000
0.218750 0.250000 0.000000
0.250000 0.250000 0.000000
0.250000 0.250000 0.000000
0.281250 0.250000 0.000000
0.281250 0.250000 0.000000
0.312500 0.250000 0.000000
0.345511 0.209632 0.000000
0.378841 0.244970 0.000000
0.335758 0.255100 0.000000
0.353389 0.264353 0.000000
0.368836 0.268444 0.018444
0.381419 0.270027 0.026446
0.393776 0.271903 0.040678
0.406294 0.273612 0.047269
0.418652 0.276159 0.064720
0.431010 0.278706 0.082171
0.443611 0.280957 0.092872
0.456594 0.281250 0.072484
0.469655 0.281250 0.043715
0.483437 0.281250 0.003257
0.496977 0.283234 0.007934
0.511398 0.285505 0.017018
0.526117 0.287889 0.026558
0.541707 0.291536 0.051432
0.558145 0.294526 0.066378
0.876921 0.312500 0.109055
0.125000 0.250000 0.000000
0.125000 0.250000 0.000000
0.156250 0.281250 0.000000
0.187500 0.281250 0.062500
0.187500 0.281250 0.000000
0.187500 0.281250 0.000000
0.218750 0.281250 0.000000
0.218750 0.281250 0.000000
0.250000 0.281250 0.000000
0.250000 0.281250 0.000000
0.281250 0.281250 0.000000
0.281250 0.281250 0.000000
0.312500 0.281250 0.000000
0.312500 0.281250 0.000000
0.369600 0.219841 0.000000
0.404473 0.255688 0.000000
0.374065 0.270000 0.000000
0.367510 0.279831 0.000000
0.384058 0.285179 0.003929
0.396479 0.286282 0.005032
0.408863 0.287482 0.008845
0.421251 0.288934 0.015368
0.433712 0.290334 0.018167
0.446249 0.292212 0.030672
0.459009 0.294019 0.038307
0.471924 0.296009 0.047452
0.485172 0.298817 0.069124
0.498662 0.301035 0.079139
0.513129 0.303121 0.087484
0.527745 0.305293 0.096170
0.543477 0.309174 0.123922
0.559675 0.312500 0.145414
0.628652 0.312500 0.058848
0.156250 0.281250 0.031250
0.156250 0.281250 0.031250
0.156250 0.281250 0.000000
0.187500 0.281250 0.031250
0.187500 0.281250 0.000000
0.187500 0.281250 0.000000
0.218750 0.281250 0.000000
0.218750 0.281250 0.000000
0.250000 0.281250 0.000000
0.250000 0.281250 0.000000
0.281250 0.281250 0.000000
0.281250 0.281250 0.000000
0.312500 0.281250 0.000000
0.312500 0.281250 0.000000
0.343750 0.281250 0.000000
0.343750 0.281250 0.000000
0.428562 0.265897 0.000000
0.412373 0.284899 0.000000
0.382130 0.294940 0.000000
0.399083 0.302093 0.020843
0.411430 0.303387 0.027317
0.423677 0.304940 0.041116
0.436012 0.306430 0.050359
0.448569 0.308435 0.065439
0.461140 0.310522 0.082184
0.474037 0.312500 0.094672
0.487601 0.312500 0.066354
0.501270 0.312500 0.034535
0.516021 0.312923 0.001692
0.530599 0.314681 0.008722
0.546780 0.316989 0.022446
0.575214 0.319558 0.034230
0.991777 0.343117 0.183705
0.156250 0.281250 0.031250
0.156250 0.281250 0.031250
0.156250 0.281250 0.000000
0.187500 0.312500 0.000000
0.218750 0.312500 0.062500
0.218750 0.312500 0.000000
0.218750 0.312500 0.000000
0.250000 0.312500 0.000000
0.250000 0.312500 0.000000
0.281250 0.312500 0.000000
0.281250 0.312500 0.000000
0.281250 0.312500 0.000000
0.312500 0.312500 0.000000
0.343750 0.312500 0.000000
0.343750 0.312500 0.000000
0.343750 0.312500 0.000000
0.375000 0.312500 0.000000
0.452651 0.276106 0.000000
0.450681 0.299799 0.000000
0.407598 0.309930 0.000000
0.414093 0.317543 0.000000
0.426391 0.318487 0.000000
0.438705 0.319493 0.002411
0.451256 0.320902 0.016804
0.463913 0.322114 0.019227
0.476875 0.323657 0.030439
0.490203 0.325196 0.038087
0.503834 0.326892 0.047010
0.518154 0.329156 0.066624
0.532869 0.331061 0.075864
0.548805 0.334272 0.104642
0.614735 0.338547 0.125880
0.923170 0.343750 0.000000
0.187500 0.312500 0.093750
0.187500 0.312500 0.062500
0.187500 0.312500 0.062500
0.187500 0.312500 0.000000
0.218750 0.312500 0.031250
0.218750 0.312500 0.000000
0.218750 0.312500 0.000000
0.250000 0.312500 0.000000
0.250000 0.312500 0.000000
0.281250 0.343750 0.000000
0.281250 0.312500 0.000000
0.281250 0.312500 0.000000
0.312500 0.312500 0.000000
0.343750 0.312500 0.000000
0.343750 0.312500 0.000000
0.343750 0.312500 0.000000
0.375000 0.312500 0.000000
0.375000 0.312500 0.000000
0.476740 0.286315 0.000000
0.488988 0.314698 0.000000
0.445905 0.324829 0.000000
0.429049 0.332977 0.000000
0.441397 0.334120 0.007794
0.453853 0.335702 0.032705
0.466383 0.337147 0.049295
0.479441 0.338795 0.063282
0.492592 0.340544 0.079929
0.506288 0.342494 0.096270
0.520709 0.343750 0.097960
0.535790 0.343750 0.067400
0.552194 0.343750 0.026230
0.590897 0.345282 0.009195
0.668541 0.349503 0.034519
0.156250 0.312500 0.000000
0.187500 0.312500 0.062500
0.187500 0.312500 0.031250
0.187500 0.312500 0.000000
0.218750 0.343750 0.000000
0.218750 0.312500 0.000000
0.250000 0.343750 0.000000
0.250000 0.343750 0.000000
0.250000 0.343750 0.000000
0.281250 0.343750 0.000000
0.281250 0.343750 0.000000
0.312500 0.343750 0.000000
0.312500 0.343750 0.000000
0.312500 0.343750 0.000000
0.343750 0.312500 0.000000
0.375000 0.343750 0.000000
0.375000 0.343750 0.000000
0.406250 0.343750 0.000000
0.406250 0.343750 0.000000
0.406250 0.343750 0.000000
0.527296 0.329598 0.000000
0.484213 0.339729 0.000000
0.444456 0.348115 0.000000
0.456868 0.348996 0.000000
0.469410 0.349830 0.000000
0.482303 0.351090 0.014679
0.495535 0.352144 0.016789
0.509397 0.353496 0.028888
0.523814 0.354755 0.033014
0.538940 0.356369 0.045548
0.555020 0.358027 0.057109
0.659770 0.363792 0.090974
0.754937 0.375000 0.187500
0.187500 0.343750 0.000000
0.187500 0.343750 0.000000
0.187500 0.343750 0.000000
0.218750 0.343750 0.031250
0.218750 0.343750 0.000000
0.218750 0.343750 0.000000
0.250000 0.343750 0.000000
0.250000 0.343750 0.000000
0.250000 0.343750 0.000000
0.281250 0.343750 0.000000
0.281250 0.343750 0.000000
0.312500 0.343750 0.000000
0.312500 0.343750 0.000000
0.312500 0.343750 0.000000
0.343750 0.343750 0.000000
0.375000 0.343750 0.000000
0.375000 0.343750 0.000000
0.406250 0.343750 0.000000
0.406250 0.343750 0.000000
0.406250 0.343750 0.000000
0.406250 0.343750 0.000000
0.559792 0.342580 0.000000
0.522521 0.354628 0.000000
0.480945 0.362908 0.000000
0.473075 0.363538 0.000000
0.485324 0.364478 0.000000
0.498247 0.366454 0.045408
0.512304 0.367897 0.060599
0.526503 0.369383 0.076900
0.541900 0.371137 0.092811
0.557775 0.373136 0.114684
0.584355 0.375000 0.120522
0.625444 0.375000 0.062056
0.187500 0.343750 0.000000
0.187500 0.343750 0.000000
0.187500 0.343750 0.000000
0.218750 0.343750 0.031250
0.218750 0.343750 0.000000
0.218750 0.343750 0.000000
0.250000 0.343750 0.000000
0.281250 0.375000 0.000000
0.281250 0.375000 0.000000
0.281250 0.375000 0.000000
0.281250 0.375000 0.000000
0.312500 0.375000 0.000000
0.312500 0.375000 0.000000
0.343750 0.375000 0.000000
0.343750 0.375000 0.000000
0.343750 0.375000 0.000000
0.375000 0.343750 0.000000
0.406250 0.343750 0.000000
0.406250 0.343750 0.000000
0.406250 0.343750 0.000000
0.437500 0.375000 0.000000
0.437500 0.375000 0.000000
0.583881 0.352790 0.000000
0.560828 0.369528 0.000000
0.519304 0.377745 0.000000
0.489860 0.377871 0.000000
0.501694 0.378961 0.000000
0.515440 0.379981 0.004981
0.529700 0.380888 0.005888
0.545421 0.382186 0.021559
0.561438 0.383274 0.024822
0.732896 0.389802 0.083146
0.866547 0.395129 0.120773
0.187500 0.343750 0.000000
0.187500 0.343750 0.000000
0.187500 0.343750 0.000000
0.218750 0.375000 0.000000
0.250000 0.375000 0.000000
0.250000 0.375000 0.000000
0.250000 0.375000 0.000000
0.281250 0.375000 0.000000
0.281250 0.375000 0.000000
0.281250 0.375000 0.000000
0.281250 0.375000 0.000000
0.312500 0.375000 0.000000
0.312500 0.375000 0.000000
0.343750 0.375000 0.000000
0.343750 0.375000 0.000000
0.343750 0.375000 0.000000
0.375000 0.375000 0.000000
0.406250 0.375000 0.000000
0.406250 0.375000 0.000000
0.437500 0.375000 0.000000
0.437500 0.375000 0.000000
0.437500 0.375000 0.000000
0.468750 0.375000 0.000000
0.607970 0.362999 0.000000
0.599136 0.384427 0.000000
0.557663 0.392581 0.000000
0.522828 0.392582 0.000000
0.518513 0.393513 0.012808
0.532930 0.394597 0.022957
0.548698 0.396229 0.056124
0.564937 0.397555 0.070102
0.583113 0.399332 0.093609
0.909836 0.406250 0.085041
0.218750 0.375000 0.031250
0.218750 0.375000 0.031250
0.218750 0.375000 0.031250
0.218750 0.375000 0.000000
0.218750 0.375000 0.000000
0.250000 0.375000 0.000000
0.250000 0.375000 0.000000
0.281250 0.375000 0.000000
0.281250 0.375000 0.000000
0.281250 0.375000 0.000000
0.312500 0.406250 0.000000
0.312500 0.406250 0.000000
0.343750 0.406250 0.000000
0.343750 0.406250 0.000000
0.343750 0.406250 0.000000
0.375000 0.406250 0.000000
0.375000 0.406250 0.000000
0.406250 0.375000 0.000000
0.406250 0.375000 0.000000
0.437500 0.375000 0.000000
0.437500 0.375000 0.000000
0.437500 0.375000 0.000000
0.468750 0.406250 0.000000
0.468750 0.406250 0.000000
0.500000 0.406250 0.000000
0.637443 0.399327 0.000000
0.596021 0.407418 0.000000
0.561187 0.407419 0.000000
0.536546 0.407545 0.000000
0.552495 0.408335 0.000000
0.568924 0.409192 0.002942
0.587248 0.410103 0.003853
0.720368 0.414197 0.039737
0.218750 0.375000 0.031250
0.218750 0.375000 0.031250
0.218750 0.375000 0.031250
0.218750 0.375000 0.000000
0.218750 0.375000 0.000000
0.250000 0.375000 0.000000
0.281250 0.406250 0.000000
0.281250 0.406250 0.000000
0.281250 0.406250 0.000000
0.312500 0.406250 0.000000
0.312500 0.406250 0.000000
0.312500 0.406250 0.000000
0.312500 0.406250 0.000000
0.343750 0.406250 0.000000
0.343750 0.406250 0.000000
0.375000 0.406250 0.000000
0.375000 0.406250 0.000000
0.375000 0.406250 0.000000
0.406250 0.375000 0.000000
0.437500 0.375000 0.000000
0.437500 0.375000 0.000000
0.468750 0.406250 0.000000
0.468750 0.406250 0.000000
0.468750 0.406250 0.000000
0.500000 0.406250 0.000000
0.500000 0.406250 0.000000
0.675751 0.414226 0.000000
0.634380 0.422255 0.000000
0.599546 0.422255 0.000000
0.580339 0.422142 0.003845
0.573675 0.422485 0.000000
0.591194 0.423613 0.017363
0.946315 0.433026 0.133881
0.218750 0.375000 0.031250
0.218750 0.375000 0.031250
0.218750 0.375000 0.031250
0.250000 0.406250 0.031250
0.250000 0.406250 0.000000
0.250000 0.406250 0.000000
0.281250 0.406250 0.000000
0.281250 0.406250 0.000000
0.281250 0.406250 0.000000
0.312500 0.406250 0.000000
0.312500 0.406250 0.000000
0.312500 0.406250 0.000000
0.343750 0.437500 0.000000
0.343750 0.437500 0.000000
0.343750 0.406250 0.000000
0.375000 0.437500 0.000000
0.375000 0.437500 0.000000
0.375000 0.406250 0.000000
0.406250 0.437500 0.000000
0.437500 0.406250 0.000000
0.468750 0.406250 0.000000
0.468750 0.406250 0.000000
0.468750 0.406250 0.000000
0.468750 0.406250 0.000000
0.500000 0.406250 0.000000
0.500000 0.406250 0.000000
0.531250 0.437500 0.000000
0.714058 0.429126 0.000000
0.672739 0.437091 0.000000
0.637904 0.437092 0.000000
0.637992 0.437014 0.010048
0.614561 0.437500 0.031627
0.628311 0.437776 0.001104
0.250000 0.406250 0.093750
0.250000 0.406250 0.093750
0.250000 0.406250 0.093750
0.250000 0.406250 0.031250
0.250000 0.406250 0.000000
0.250000 0.406250 0.000000
0.281250 0.406250 0.000000
0.281250 0.406250 0.000000
0.312500 0.437500 0.000000
0.312500 0.437500 0.000000
0.312500 0.437500 0.000000
0.343750 0.437500 0.000000
0.343750 0.437500 0.000000
0.343750 0.437500 0.000000
0.343750 0.437500 0.000000
0.375000 0.437500 0.000000
0.375000 0.437500 0.000000
0.375000 0.437500 0.000000
0.406250 0.437500 0.000000
0.406250 0.437500 0.000000
0.437500 0.406250 0.000000
0.468750 0.406250 0.000000
0.468750 0.406250 0.000000
0.468750 0.406250 0.000000
0.500000 0.437500 0.000000
0.531250 0.437500 0.000000
0.531250 0.437500 0.000000
0.531250 0.437500 0.000000
0.739199 0.439682 0.000000
0.711098 0.451928 0.000000
0.753297 0.452551 0.028765
0.695646 0.451886 0.016250
0.837742 0.455229 0.070914
0.250000 0.406250 0.093750
0.250000 0.406250 0.093750
0.250000 0.406250 0.093750
0.250000 0.406250 0.031250
0.250000 0.406250 0.000000
0.281250 0.437500 0.000000
0.281250 0.437500 0.000000
0.312500 0.437500 0.000000
0.312500 0.437500 0.000000
0.312500 0.437500 0.000000
0.312500 0.437500 0.000000
0.343750 0.468750 0.000000
0.343750 0.437500 0.000000
0.343750 0.437500 0.000000
0.375000 0.468750 0.000000
0.375000 0.437500 0.000000
0.375000 0.437500 0.000000
0.406250 0.468750 0.000000
0.406250 0.468750 0.000000
0.406250 0.437500 0.000000
0.437500 0.468750 0.000000
0.468750 0.406250 0.000000
0.468750 0.406250 0.000000
0.500000 0.437500 0.000000
0.500000 0.437500 0.000000
0.531250 0.437500 0.000000
0.531250 0.437500 0.000000
0.531250 0.437500 0.000000
0.562500 0.437500 0.000000
0.562500 0.437500 0.000000
0.749457 0.466764 0.000000
0.810951 0.467423 0.034968
0.915471 0.468750 0.000000
0.250000 0.406250 0.093750
0.250000 0.406250 0.093750
0.250000 0.406250 0.093750
0.281250 0.437500 0.125000
0.281250 0.437500 0.031250
0.281250 0.437500 0.000000
0.281250 0.437500 0.000000
0.312500 0.437500 0.000000
0.312500 0.437500 0.000000
0.312500 0.437500 0.000000
0.343750 0.468750 0.000000
0.343750 0.468750 0.000000
0.343750 0.468750 0.000000
0.343750 0.468750 0.000000
0.375000 0.468750 0.000000
0.375000 0.468750 0.000000
0.375000 0.468750 0.000000
0.406250 0.468750 0.000000
0.406250 0.468750 0.000000
0.406250 0.468750 0.000000
0.437500 0.468750 0.000000
0.437500 0.468750 0.000000
0.500000 0.437500 0.000000
0.500000 0.437500 0.000000
0.500000 0.437500 0.000000
0.531250 0.437500 0.000000
0.531250 0.437500 0.000000
0.531250 0.437500 0.000000
0.562500 0.468750 0.000000
0.593750 0.468750 0.000000
0.593750 0.468750 0.000000
0.787815 0.481601 0.000000
0.818492 0.481849 0.026198
0.250000 0.437500 0.000000
0.250000 0.437500 0.000000
0.250000 0.437500 0.000000
0.281250 0.437500 0.125000
0.281250 0.437500 0.000000
0.281250 0.437500 0.000000
0.281250 0.437500 0.000000
0.312500 0.468750 0.000000
0.343750 0.468750 0.000000
0.343750 0.468750 0.000000
0.343750 0.468750 0.000000
0.343750 0.468750 0.000000
0.343750 0.468750 0.000000
0.343750 0.468750 0.000000
0.375000 0.468750 0.000000
0.375000 0.468750 0.000000
0.375000 0.468750 0.000000
0.406250 0.468750 0.000000
0.406250 0.468750 0.000000
0.406250 0.468750 0.000000
0.437500 0.468750 0.000000
0.437500 0.468750 0.000000
0.500000 0.437500 0.000000
0.500000 0.437500 0.000000
0.500000 0.437500 0.000000
0.531250 0.437500 0.000000
0.562500 0.468750 0.000000
0.562500 0.468750 0.000000
0.562500 0.468750 0.000000
0.593750 0.468750 0.000000
1.000000 0.500000 0.062500
1.000000 0.500000 0.062500
0.977772 0.497777 0.058054
0.250000 0.437500 0.000000
0.250000 0.437500 0.000000
0.281250 0.468750 0.031250
0.281250 0.468750 0.031250
0.281250 0.468750 0.000000
0.281250 0.468750 0.000000
0.312500 0.468750 0.000000
0.312500 0.468750 0.000000
0.343750 0.468750 0.000000
0.343750 0.468750 0.000000
0.343750 0.468750 0.000000
0.343750 0.468750 0.000000
0.343750 0.468750 0.000000
0.375000 0.500000 0.000000
0.375000 0.500000 0.000000
0.375000 0.500000 0.000000
0.406250 0.500000 0.000000
0.406250 0.500000 0.000000
0.406250 0.500000 0.000000
0.437500 0.500000 0.000000
0.437500 0.500000 0.000000
0.437500 0.500000 0.000000
0.468750 0.500000 0.000000
0.468750 0.500000 0.000000
0.531250 0.468750 0.000000
